;FLAVOR:Marlin
;TIME:1663
;Filament used: 1.21239m
;Layer height: 0.3
;MINX:76.664
;MINY:93.5
;MINZ:0.2
;MAXX:143.336
;MAXY:126.5
;MAXZ:29.9
;Generated with Creality Slicer 4.8.2-191
M140 S65
M105
M190 S65
M104 S205
M105
M109 S205
M82 ;absolute extrusion mode

G28 ;Home

G92 E0 ;Reset Extruder
G1 Z2.0 F3000 ;Move Z Axis up
G1 X10.1 Y20 Z0.28 F5000.0 ;Move to start position
G1 X10.1 Y200.0 Z0.28 F1500.0 E15 ;Draw the first line
G1 X10.4 Y200.0 Z0.28 F5000.0 ;Move to side a little
G1 X10.4 Y20 Z0.28 F1500.0 E30 ;Draw the second line
G92 E0 ;Reset Extruder
G1 Z2.0 F3000 ;Move Z Axis up

G92 E0
G92 E0
G1 F2400 E-0.8
;LAYER_COUNT:100
;LAYER:0
M107
G0 F6000 X80.786 Y97.464 Z0.2
;TYPE:SKIRT
G1 F2400 E0
G1 F1200 X81.729 Y96.737 E0.0396
G1 X82.12 Y96.474 E0.05528
G1 X82.336 Y96.335 E0.06382
G1 X83.146 Y95.861 E0.09503
G1 X83.993 Y95.459 E0.12622
G1 X84.871 Y95.129 E0.15741
G1 X85.861 Y94.856 E0.19157
G1 X85.998 Y94.825 E0.19624
G1 X86.462 Y94.731 E0.21199
G1 X86.699 Y94.688 E0.22
G1 X87.628 Y94.56 E0.25119
G1 X88.497 Y94.512 E0.28014
G1 X89.324 Y94.501 E0.30765
G1 X103.109 Y94.501 E0.76614
G1 X105.026 Y94.529 E0.8299
G1 X105.75 Y94.549 E0.85399
G1 X108.271 Y94.545 E0.93784
G1 X110.761 Y94.472 E1.0207
G1 X113.314 Y94.325 E1.10575
G1 X115.766 Y94.113 E1.18761
G1 X119.576 Y93.65 E1.31526
G1 X119.806 Y93.617 E1.32299
G1 X121.037 Y93.513 E1.36408
G1 X121.357 Y93.504 E1.37473
G1 X121.666 Y93.5 E1.385
G1 X129.629 Y93.5 E1.64985
G1 X130.488 Y93.511 E1.67843
G1 X131.424 Y93.564 E1.70961
G1 X132.352 Y93.697 E1.74079
G1 X133.266 Y93.909 E1.772
G1 X134.159 Y94.197 E1.8032
G1 X135.023 Y94.561 E1.83439
G1 X135.854 Y94.997 E1.8656
G1 X136.644 Y95.502 E1.89678
G1 X137.388 Y96.072 E1.92796
G1 X138.081 Y96.704 E1.95915
G1 X138.718 Y97.393 E1.99036
G1 X139.445 Y98.351 E2.03036
G1 X139.823 Y98.912 E2.05286
G1 X140.772 Y100.359 E2.11041
G1 X141.432 Y101.332 E2.14952
G1 X141.925 Y102.13 E2.18072
G1 X142.348 Y102.967 E2.21191
G1 X142.698 Y103.837 E2.2431
G1 X142.972 Y104.734 E2.27429
G1 X143.169 Y105.651 E2.30549
G1 X143.287 Y106.581 E2.33667
G1 X143.321 Y107.167 E2.35619
G1 X143.331 Y107.495 E2.36711
G1 X143.336 Y107.83 E2.37825
G1 X143.335 Y112.915 E2.54738
G1 X143.325 Y113.642 E2.57156
G1 X143.272 Y114.579 E2.60278
G1 X143.14 Y115.507 E2.63395
G1 X142.929 Y116.421 E2.66515
G1 X142.64 Y117.313 E2.69634
G1 X142.277 Y118.178 E2.72754
G1 X141.842 Y119.009 E2.75874
G1 X141.337 Y119.799 E2.78992
G1 X140.767 Y120.544 E2.82112
G1 X140.136 Y121.238 E2.85232
G1 X139.447 Y121.875 E2.88353
G1 X138.707 Y122.451 E2.91472
G1 X137.921 Y122.962 E2.9459
G1 X137.094 Y123.404 E2.97709
G1 X136.232 Y123.774 E3.00829
G1 X135.342 Y124.069 E3.03947
G1 X134.43 Y124.288 E3.07067
G1 X133.503 Y124.428 E3.10185
G1 X132.635 Y124.487 E3.13078
G1 X132.315 Y124.496 E3.14143
G1 X132.006 Y124.5 E3.15171
G1 X124.598 Y124.5 E3.3981
G1 X121.99 Y124.537 E3.48485
G1 X119.469 Y124.644 E3.56878
G1 X116.974 Y124.821 E3.65197
G1 X114.474 Y125.069 E3.73553
G1 X111.981 Y125.388 E3.81912
G1 X109.475 Y125.781 E3.90349
G1 X106.681 Y126.303 E3.99803
G1 X105.752 Y126.436 E4.02924
G1 X104.936 Y126.487 E4.05643
G1 X104.534 Y126.497 E4.06981
G1 X104.26 Y126.5 E4.07892
G1 X88.229 Y126.499 E4.61212
G1 X87.531 Y126.49 E4.63533
G1 X86.595 Y126.438 E4.66651
G1 X85.666 Y126.306 E4.69772
G1 X84.752 Y126.096 E4.72891
G1 X83.859 Y125.809 E4.76011
G1 X82.994 Y125.446 E4.79131
G1 X82.163 Y125.012 E4.82249
G1 X81.372 Y124.508 E4.85369
G1 X80.627 Y123.938 E4.88489
G1 X79.933 Y123.307 E4.91609
G1 X79.296 Y122.62 E4.94725
G1 X78.719 Y121.88 E4.97846
G1 X78.207 Y121.094 E5.00966
G1 X77.764 Y120.267 E5.04086
G1 X77.393 Y119.406 E5.07204
G1 X77.097 Y118.516 E5.10324
G1 X76.878 Y117.604 E5.13443
G1 X76.737 Y116.677 E5.16562
G1 X76.677 Y115.788 E5.19526
G1 X76.668 Y115.455 E5.20634
G1 X76.664 Y115.158 E5.21621
G1 X76.665 Y107.034 E5.48642
G1 X76.676 Y106.328 E5.5099
G1 X76.731 Y105.391 E5.54112
G1 X76.862 Y104.481 E5.5717
G1 X76.904 Y104.256 E5.57931
G1 X77.115 Y103.342 E5.61051
G1 X77.373 Y102.532 E5.63879
G1 X77.462 Y102.286 E5.64749
G1 X77.819 Y101.418 E5.67871
G1 X78.248 Y100.584 E5.7099
G1 X78.752 Y99.781 E5.74143
G1 X78.91 Y99.552 E5.75069
G1 X79.475 Y98.804 E5.78186
G1 X80.102 Y98.106 E5.81307
G1 X80.786 Y97.464 E5.84427
G0 F6000 X81.085 Y97.734
G1 F1200 X81.955 Y97.066 E5.88075
G1 X82.064 Y96.991 E5.88515
G1 X82.337 Y96.81 E5.89605
G1 X82.553 Y96.671 E5.90459
G1 X83.348 Y96.207 E5.93521
G1 X84.18 Y95.814 E5.96581
G1 X85.044 Y95.494 E5.99646
G1 X85.95 Y95.246 E6.0277
G1 X86.087 Y95.215 E6.03237
G1 X86.534 Y95.124 E6.04754
G1 X86.771 Y95.081 E6.05555
G1 X87.683 Y94.956 E6.08617
G1 X88.503 Y94.912 E6.11348
G1 X89.324 Y94.901 E6.14079
G1 X103.104 Y94.901 E6.59912
G1 X105.015 Y94.929 E6.66268
G1 X105.74 Y94.949 E6.68681
G1 X108.284 Y94.945 E6.77142
G1 X110.796 Y94.871 E6.85501
G1 X113.303 Y94.727 E6.93853
G1 X115.817 Y94.51 E7.02245
G1 X119.63 Y94.046 E7.15021
G1 X119.862 Y94.013 E7.158
G1 X121.048 Y93.913 E7.19759
G1 X121.368 Y93.904 E7.20824
G1 X121.666 Y93.9 E7.21815
G1 X129.629 Y93.9 E7.483
G1 X130.482 Y93.911 E7.51137
G1 X131.401 Y93.964 E7.54199
G1 X132.312 Y94.097 E7.57261
G1 X133.208 Y94.308 E7.60323
G1 X134.083 Y94.596 E7.63387
G1 X134.929 Y94.959 E7.66449
G1 X135.74 Y95.394 E7.69509
G1 X136.511 Y95.898 E7.72573
G1 X137.235 Y96.466 E7.75634
G1 X137.907 Y97.096 E7.78697
G1 X138.521 Y97.781 E7.81757
G1 X139.114 Y98.575 E7.85053
G1 X139.489 Y99.132 E7.87287
G1 X140.429 Y100.565 E7.92987
G1 X141.101 Y101.556 E7.96969
G1 X141.584 Y102.34 E8.00032
G1 X141.997 Y103.163 E8.03094
G1 X142.337 Y104.018 E8.06155
G1 X142.602 Y104.9 E8.09218
G1 X142.789 Y105.802 E8.12282
G1 X142.897 Y106.716 E8.15343
G1 X142.921 Y107.179 E8.16885
G1 X142.931 Y107.507 E8.17976
G1 X142.936 Y107.83 E8.19051
G1 X142.935 Y112.91 E8.35947
G1 X142.925 Y113.637 E8.38365
G1 X142.872 Y114.556 E8.41427
G1 X142.74 Y115.467 E8.44488
G1 X142.529 Y116.363 E8.4755
G1 X142.242 Y117.238 E8.50613
G1 X141.879 Y118.084 E8.53675
G1 X141.445 Y118.896 E8.56737
G1 X140.941 Y119.667 E8.59801
G1 X140.373 Y120.391 E8.62861
G1 X139.744 Y121.063 E8.65923
G1 X139.059 Y121.678 E8.68985
G1 X138.323 Y122.231 E8.72047
G1 X137.542 Y122.719 E8.7511
G1 X136.722 Y123.137 E8.78171
G1 X135.868 Y123.482 E8.81234
G1 X134.988 Y123.751 E8.84295
G1 X134.087 Y123.944 E8.8736
G1 X133.174 Y124.057 E8.90419
G1 X132.624 Y124.087 E8.92251
G1 X132.304 Y124.096 E8.93316
G1 X132.006 Y124.1 E8.94307
G1 X124.592 Y124.1 E9.18966
G1 X121.967 Y124.137 E9.27698
G1 X119.459 Y124.244 E9.36047
G1 X116.939 Y124.422 E9.4445
G1 X114.424 Y124.671 E9.52856
G1 X111.935 Y124.99 E9.61202
G1 X109.405 Y125.388 E9.6972
G1 X106.607 Y125.91 E9.79187
G1 X105.696 Y126.039 E9.82247
G1 X104.926 Y126.087 E9.84813
G1 X104.524 Y126.097 E9.8615
G1 X104.26 Y126.1 E9.87029
G1 X88.234 Y126.099 E10.40331
G1 X87.536 Y126.09 E10.42653
G1 X86.617 Y126.038 E10.45715
G1 X85.706 Y125.907 E10.48776
G1 X84.81 Y125.697 E10.51837
G1 X83.935 Y125.41 E10.54899
G1 X83.088 Y125.048 E10.57963
G1 X82.276 Y124.614 E10.61025
G1 X81.505 Y124.112 E10.64085
G1 X80.78 Y123.544 E10.67149
G1 X80.107 Y122.915 E10.70212
G1 X79.492 Y122.231 E10.73272
G1 X78.938 Y121.496 E10.76333
G1 X78.45 Y120.715 E10.79396
G1 X78.031 Y119.895 E10.82459
G1 X77.685 Y119.042 E10.8552
G1 X77.415 Y118.162 E10.88582
G1 X77.222 Y117.261 E10.91647
G1 X77.108 Y116.348 E10.94707
G1 X77.077 Y115.777 E10.96609
G1 X77.068 Y115.444 E10.97717
G1 X77.064 Y115.158 E10.98668
G1 X77.065 Y107.04 E11.25669
G1 X77.076 Y106.334 E11.28017
G1 X77.131 Y105.415 E11.31079
G1 X77.255 Y104.554 E11.33973
G1 X77.297 Y104.329 E11.34734
G1 X77.505 Y103.432 E11.37796
G1 X77.749 Y102.668 E11.40464
G1 X77.838 Y102.422 E11.41334
G1 X78.189 Y101.57 E11.44399
G1 X78.612 Y100.753 E11.47459
G1 X79.081 Y100.008 E11.50387
G1 X79.239 Y99.779 E11.51312
G1 X79.794 Y99.045 E11.54373
G1 X80.411 Y98.361 E11.57437
G1 X81.085 Y97.734 E11.60498
G0 F6000 X81.384 Y98.005
G1 F1200 X82.182 Y97.396 E11.63837
G1 X82.291 Y97.321 E11.64277
G1 X82.553 Y97.147 E11.65323
G1 X82.769 Y97.008 E11.66178
G1 X83.55 Y96.553 E11.69184
G1 X84.367 Y96.169 E11.72186
G1 X85.215 Y95.859 E11.75189
G1 X86.038 Y95.637 E11.78025
G1 X86.175 Y95.606 E11.78492
G1 X86.605 Y95.518 E11.79952
G1 X86.842 Y95.475 E11.80753
G1 X87.737 Y95.353 E11.83757
G1 X88.509 Y95.312 E11.86328
G1 X89.324 Y95.301 E11.89039
G1 X103.098 Y95.301 E12.34852
G1 X105.004 Y95.329 E12.41192
G1 X105.729 Y95.349 E12.43604
G1 X108.261 Y95.345 E12.52026
G1 X110.83 Y95.27 E12.60574
G1 X113.36 Y95.124 E12.69003
G1 X115.843 Y94.91 E12.77292
G1 X119.685 Y94.442 E12.90165
G1 X119.918 Y94.409 E12.90947
G1 X121.059 Y94.313 E12.94756
G1 X121.379 Y94.304 E12.95821
G1 X121.666 Y94.3 E12.96775
G1 X129.629 Y94.3 E13.2326
G1 X130.476 Y94.311 E13.26078
G1 X131.378 Y94.364 E13.29083
G1 X132.271 Y94.496 E13.32085
G1 X133.149 Y94.707 E13.35089
G1 X134.005 Y94.995 E13.38093
G1 X134.833 Y95.357 E13.41098
G1 X135.625 Y95.791 E13.44102
G1 X136.375 Y96.294 E13.47105
G1 X137.078 Y96.86 E13.50107
G1 X137.728 Y97.487 E13.53111
G1 X138.32 Y98.169 E13.56115
G1 X138.782 Y98.799 E13.58713
G1 X139.154 Y99.351 E13.60927
G1 X140.076 Y100.755 E13.66514
G1 X140.77 Y101.78 E13.70631
G1 X141.243 Y102.55 E13.73637
G1 X141.646 Y103.358 E13.7664
G1 X141.976 Y104.199 E13.79645
G1 X142.231 Y105.065 E13.82647
G1 X142.407 Y105.951 E13.85652
G1 X142.521 Y107.191 E13.89793
G1 X142.531 Y107.519 E13.90885
G1 X142.536 Y107.83 E13.91919
G1 X142.535 Y112.904 E14.08795
G1 X142.525 Y113.631 E14.11214
G1 X142.473 Y114.533 E14.14219
G1 X142.341 Y115.426 E14.17221
G1 X142.13 Y116.305 E14.20228
G1 X141.843 Y117.161 E14.2323
G1 X141.481 Y117.988 E14.26233
G1 X141.047 Y118.78 E14.29237
G1 X140.545 Y119.531 E14.32241
G1 X139.979 Y120.234 E14.35243
G1 X139.352 Y120.885 E14.38249
G1 X138.671 Y121.477 E14.41251
G1 X137.94 Y122.007 E14.44254
G1 X137.164 Y122.47 E14.47259
G1 X136.351 Y122.863 E14.50263
G1 X135.506 Y123.183 E14.53268
G1 X134.637 Y123.426 E14.56269
G1 X133.749 Y123.591 E14.59273
G1 X132.613 Y123.687 E14.63065
G1 X132.293 Y123.696 E14.6413
G1 X132.006 Y123.7 E14.65084
G1 X124.586 Y123.7 E14.89763
G1 X121.98 Y123.737 E14.98432
G1 X119.415 Y123.846 E15.06971
G1 X116.908 Y124.024 E15.1533
G1 X114.367 Y124.275 E15.23823
G1 X111.859 Y124.596 E15.32232
G1 X109.375 Y124.987 E15.40596
G1 X106.534 Y125.517 E15.50208
G1 X105.64 Y125.643 E15.53211
G1 X104.916 Y125.687 E15.55623
G1 X104.514 Y125.697 E15.56961
G1 X104.26 Y125.7 E15.57806
G1 X88.239 Y125.699 E16.11092
G1 X87.541 Y125.69 E16.13413
G1 X86.64 Y125.639 E16.16415
G1 X85.746 Y125.507 E16.19421
G1 X84.868 Y125.298 E16.22423
G1 X84.011 Y125.011 E16.25429
G1 X83.184 Y124.65 E16.2843
G1 X82.391 Y124.217 E16.31435
G1 X81.64 Y123.716 E16.34438
G1 X80.936 Y123.15 E16.37442
G1 X80.285 Y122.524 E16.40446
G1 X79.692 Y121.843 E16.43449
G1 X79.162 Y121.112 E16.46452
G1 X78.698 Y120.337 E16.49457
G1 X78.304 Y119.524 E16.52462
G1 X77.984 Y118.68 E16.55464
G1 X77.74 Y117.81 E16.58469
G1 X77.574 Y116.922 E16.61474
G1 X77.477 Y115.767 E16.65329
G1 X77.468 Y115.434 E16.66437
G1 X77.464 Y115.158 E16.67355
G1 X77.465 Y107.046 E16.94335
G1 X77.476 Y106.34 E16.96684
G1 X77.53 Y105.439 E16.99686
G1 X77.648 Y104.627 E17.02415
G1 X77.69 Y104.402 E17.03176
G1 X77.895 Y103.523 E17.06178
G1 X78.125 Y102.804 E17.08689
G1 X78.214 Y102.558 E17.09559
G1 X78.559 Y101.723 E17.12564
G1 X78.976 Y100.922 E17.15568
G1 X79.41 Y100.235 E17.1827
G1 X79.568 Y100.006 E17.19196
G1 X80.114 Y99.287 E17.22199
G1 X80.721 Y98.618 E17.25203
G1 X81.384 Y98.005 E17.28206
G1 F2400 E16.48206
;MESH:Vernbedien..2 v3.stl
G0 F6000 X88.49 Y104.858
G0 X88.7 Y105.92
G0 X103.746 Y106.302
G0 X104.064 Y114.9
;TYPE:WALL-INNER
G1 F2400 E17.28206
G1 F1200 X103.865 Y114.9 E17.28868
G1 X88.264 Y114.9 E17.80757
G1 X88.264 Y106.557 E18.08506
G1 X88.306 Y106.349 E18.09212
G1 X88.388 Y106.226 E18.09704
G1 X88.514 Y106.142 E18.10207
G1 X88.721 Y106.101 E18.10909
G1 X103.609 Y106.1 E18.60427
G1 X103.812 Y106.14 E18.61115
G1 X103.941 Y106.227 E18.61633
G1 X104.022 Y106.347 E18.62114
G1 X104.063 Y106.557 E18.62826
G1 X104.064 Y114.701 E18.89913
G1 X104.064 Y114.9 E18.90341
G0 F6000 X104.464 Y115.3
;TYPE:WALL-OUTER
G1 F1200 X87.864 Y115.3 E19.45553
G1 X87.864 Y106.518 E19.74762
G1 X87.929 Y106.194 E19.75861
G1 X88.101 Y105.937 E19.7689
G1 X88.359 Y105.764 E19.77923
G1 X88.68 Y105.701 E19.79011
G1 X103.647 Y105.7 E20.28791
G1 X103.969 Y105.764 E20.29883
G1 X104.228 Y105.937 E20.30919
G1 X104.4 Y106.194 E20.31948
G1 X104.463 Y106.516 E20.33039
G1 X104.464 Y115.3 E20.62255
G0 F6000 X104.194 Y115.03
G0 X103.954 Y114.51
G0 X103.674 Y114.51
;TYPE:SKIN
G1 F1200 X88.654 Y114.51 E21.12211
G1 X88.654 Y106.594 E21.3854
G1 X88.671 Y106.508 E21.38832
G1 X88.761 Y106.491 E21.39136
G1 X103.573 Y106.49 E21.88401
G1 X103.656 Y106.506 E21.88682
G1 X103.673 Y106.592 E21.88974
G1 X103.674 Y114.51 E22.15309
G0 F6000 X103.954 Y114.51
G0 X103.954 Y106.907
G0 X103.513 Y106.907
G1 F1200 X103.255 Y106.65 E22.1652
G0 F6000 X102.69 Y106.65
G1 F1200 X103.513 Y107.473 E22.20392
G0 F6000 X103.513 Y108.038
G1 F1200 X102.124 Y106.65 E22.26923
G0 F6000 X101.558 Y106.65
G1 F1200 X103.513 Y108.604 E22.36116
G0 F6000 X103.513 Y109.17
G1 F1200 X100.993 Y106.65 E22.47969
G0 F6000 X100.427 Y106.65
G1 F1200 X103.513 Y109.735 E22.62483
G0 F6000 X103.513 Y110.301
G1 F1200 X99.861 Y106.65 E22.79658
G0 F6000 X99.296 Y106.65
G1 F1200 X103.514 Y110.867 E22.99496
G0 F6000 X103.514 Y111.433
G1 F1200 X98.73 Y106.65 E23.21996
G0 F6000 X98.164 Y106.65
G1 F1200 X103.514 Y111.999 E23.47159
G0 F6000 X103.514 Y112.565
G1 F1200 X97.599 Y106.65 E23.74981
G0 F6000 X97.033 Y106.65
G1 F1200 X103.514 Y113.13 E24.05463
G0 F6000 X103.514 Y113.696
G1 F1200 X96.467 Y106.65 E24.38608
G0 F6000 X95.902 Y106.65
G1 F1200 X103.514 Y114.262 E24.74412
G0 F6000 X103.035 Y114.349
G1 F1200 X95.336 Y106.65 E25.10626
G0 F6000 X94.77 Y106.65
G1 F1200 X102.469 Y114.349 E25.4684
G0 F6000 X101.903 Y114.349
G1 F1200 X94.205 Y106.65 E25.83051
G0 F6000 X93.639 Y106.65
G1 F1200 X101.338 Y114.349 E26.19265
G0 F6000 X100.772 Y114.349
G1 F1200 X93.073 Y106.65 E26.55479
G0 F6000 X92.507 Y106.65
G1 F1200 X100.206 Y114.349 E26.91692
G0 F6000 X99.641 Y114.349
G1 F1200 X91.942 Y106.65 E27.27906
G0 F6000 X91.376 Y106.65
G1 F1200 X99.075 Y114.349 E27.6412
G0 F6000 X98.509 Y114.349
G1 F1200 X90.81 Y106.65 E28.00334
G0 F6000 X90.245 Y106.65
G1 F1200 X97.944 Y114.349 E28.36547
G0 F6000 X97.378 Y114.349
G1 F1200 X89.679 Y106.65 E28.72761
G0 F6000 X89.113 Y106.65
G1 F1200 X96.812 Y114.349 E29.08975
G0 F6000 X96.247 Y114.349
G1 F1200 X88.814 Y106.915 E29.4394
G0 F6000 X88.814 Y107.481
G1 F1200 X95.681 Y114.349 E29.76242
G0 F6000 X95.115 Y114.349
G1 F1200 X88.814 Y108.047 E30.05883
G0 F6000 X88.814 Y108.613
G1 F1200 X94.55 Y114.349 E30.32863
G0 F6000 X93.984 Y114.349
G1 F1200 X88.814 Y109.178 E30.57183
G0 F6000 X88.814 Y109.744
G1 F1200 X93.418 Y114.349 E30.78842
G0 F6000 X92.853 Y114.349
G1 F1200 X88.814 Y110.31 E30.9784
G0 F6000 X88.814 Y110.875
G1 F1200 X92.287 Y114.349 E31.14178
G0 F6000 X91.721 Y114.349
G1 F1200 X88.814 Y111.441 E31.27854
G0 F6000 X88.814 Y112.007
G1 F1200 X91.155 Y114.349 E31.38868
G0 F6000 X90.59 Y114.349
G1 F1200 X88.814 Y112.572 E31.47224
G0 F6000 X88.814 Y113.138
G1 F1200 X90.024 Y114.349 E31.52918
G0 F6000 X89.458 Y114.349
G1 F1200 X88.814 Y113.704 E31.55949
G0 F6000 X88.814 Y114.269
G1 F1200 X88.893 Y114.349 E31.56323
G0 F6000 X88.893 Y114.7
G1 F2400 E30.76323
G0 F6000 X88.893 Y114.79
G0 X103.882 Y114.718
G0 X104.263 Y112.901
G0 X105.328 Y112.9
G0 X118.671 Y112.901
G0 X119.756 Y112.901
G0 X119.936 Y112.9
;TYPE:WALL-INNER
G1 F2400 E31.56323
G1 F1200 X119.936 Y108.1 E31.72288
G1 X121.936 Y108.1 E31.7894
G1 X121.936 Y105.1 E31.88918
G1 X129.736 Y105.1 E32.14861
G1 X129.736 Y108.1 E32.24839
G1 X131.736 Y108.1 E32.31491
G1 X131.736 Y112.9 E32.47456
G1 X119.936 Y112.9 E32.86703
G0 F6000 X119.536 Y113.3
;TYPE:WALL-OUTER
G1 F1200 X119.536 Y107.7 E33.05329
G1 X121.536 Y107.7 E33.11981
G1 X121.536 Y104.7 E33.21959
G1 X130.136 Y104.7 E33.50562
G1 X130.136 Y107.7 E33.6054
G1 X132.136 Y107.7 E33.67192
G1 X132.136 Y113.3 E33.85818
G1 X119.536 Y113.3 E34.27726
G0 F6000 X119.806 Y113.03
G0 X120.046 Y112.51
