;FLAVOR:Marlin
;TIME:1350
;Filament used: 0.718523m
;Layer height: 0.3
;MINX:92.739
;MINY:52.747
;MINZ:0.2
;MAXX:124.207
;MAXY:84.203
;MAXZ:50
;Generated with Creality Slicer 4.8.2-191
M140 S65
M105
M190 S65
M104 S205
M105
M109 S205
M82 ;absolute extrusion mode

G28 ;Home

G92 E0 ;Reset Extruder
G1 Z2.0 F3000 ;Move Z Axis up
G1 X10.1 Y20 Z0.28 F5000.0 ;Move to start position
G1 X10.1 Y200.0 Z0.28 F1500.0 E15 ;Draw the first line
G1 X10.4 Y200.0 Z0.28 F5000.0 ;Move to side a little
G1 X10.4 Y20 Z0.28 F1500.0 E30 ;Draw the second line
G92 E0 ;Reset Extruder
G1 Z2.0 F3000 ;Move Z Axis up

G92 E0
G92 E0
G1 F2400 E-0.8
;LAYER_COUNT:167
;LAYER:0
M107
G0 F6000 X95.088 Y60.202 Z0.2
;TYPE:SKIRT
G1 F2400 E0
G1 F1200 X95.244 Y59.957 E0.00966
G1 X95.407 Y59.709 E0.01953
G1 X95.538 Y59.515 E0.02732
G1 X96.128 Y58.72 E0.06024
G1 X96.384 Y58.406 E0.07372
G1 X96.642 Y58.1 E0.08703
G1 X97.362 Y57.334 E0.122
G1 X97.635 Y57.07 E0.13463
G1 X97.877 Y56.843 E0.14566
G1 X98.011 Y56.721 E0.15169
G1 X98.714 Y56.133 E0.18217
G1 X98.999 Y55.914 E0.19413
G1 X99.246 Y55.729 E0.20439
G1 X99.384 Y55.629 E0.21006
G1 X100.216 Y55.082 E0.24318
G1 X100.559 Y54.878 E0.25645
G1 X100.933 Y54.664 E0.27078
G1 X101.853 Y54.201 E0.30504
G1 X102.208 Y54.043 E0.31796
G1 X102.546 Y53.9 E0.33017
G1 X102.721 Y53.829 E0.33645
G1 X103.492 Y53.549 E0.36373
G1 X103.794 Y53.452 E0.37428
G1 X104.221 Y53.324 E0.38911
G1 X104.387 Y53.278 E0.39484
G1 X105.246 Y53.077 E0.42418
G1 X105.719 Y52.986 E0.4402
G1 X106.096 Y52.92 E0.45293
G1 X106.211 Y52.902 E0.4568
G1 X107.096 Y52.8 E0.48643
G1 X107.432 Y52.775 E0.49764
G1 X107.778 Y52.755 E0.50917
G1 X107.965 Y52.747 E0.51539
G1 X108.912 Y52.747 E0.54689
G1 X109.35 Y52.766 E0.56147
G1 X109.768 Y52.792 E0.5754
G1 X110.762 Y52.907 E0.60868
G1 X111.089 Y52.96 E0.6197
G1 X111.404 Y53.016 E0.63034
G1 X111.607 Y53.055 E0.63722
G1 X112.54 Y53.276 E0.66911
G1 X112.955 Y53.394 E0.68346
G1 X113.356 Y53.516 E0.6974
G1 X114.317 Y53.866 E0.73141
G1 X114.866 Y54.098 E0.75124
G1 X115.055 Y54.182 E0.75812
G1 X115.969 Y54.64 E0.79212
G1 X116.256 Y54.801 E0.80306
G1 X116.67 Y55.043 E0.81901
G1 X117.503 Y55.59 E0.85216
G1 X117.821 Y55.82 E0.86521
G1 X118.104 Y56.032 E0.87697
G1 X118.232 Y56.131 E0.88236
G1 X118.94 Y56.728 E0.91316
G1 X119.208 Y56.974 E0.92526
G1 X119.458 Y57.211 E0.93672
G1 X119.59 Y57.34 E0.94285
G1 X120.202 Y57.988 E0.9725
G1 X120.449 Y58.272 E0.98502
G1 X120.666 Y58.529 E0.99621
G1 X120.769 Y58.655 E1.00162
G1 X121.352 Y59.437 E1.03406
G1 X121.587 Y59.783 E1.04797
G1 X121.782 Y60.081 E1.05982
G1 X121.863 Y60.209 E1.06485
G1 X122.313 Y60.988 E1.09478
G1 X122.479 Y61.305 E1.10668
G1 X122.652 Y61.65 E1.11951
G1 X122.723 Y61.798 E1.12497
G1 X123.077 Y62.62 E1.15474
G1 X123.223 Y63.001 E1.16831
G1 X123.352 Y63.357 E1.18091
G1 X123.405 Y63.511 E1.18632
G1 X123.666 Y64.385 E1.21666
G1 X123.765 Y64.775 E1.23004
G1 X123.844 Y65.109 E1.24146
G1 X123.88 Y65.272 E1.24701
G1 X124.044 Y66.203 E1.27845
G1 X124.081 Y66.483 E1.28785
G1 X124.116 Y66.772 E1.29753
G1 X124.142 Y67.019 E1.30579
G1 X124.201 Y67.999 E1.33844
G1 X124.207 Y68.383 E1.35122
G1 X124.205 Y68.853 E1.36685
G1 X124.149 Y69.834 E1.39953
G1 X124.111 Y70.206 E1.41197
G1 X124.071 Y70.545 E1.42332
G1 X124.044 Y70.747 E1.4301
G1 X123.887 Y71.639 E1.46022
G1 X123.814 Y71.973 E1.4716
G1 X123.722 Y72.36 E1.48483
G1 X123.675 Y72.543 E1.49111
G1 X123.414 Y73.409 E1.52119
G1 X123.22 Y73.965 E1.54078
G1 X123.168 Y74.106 E1.54578
G1 X122.738 Y75.113 E1.5822
G1 X122.538 Y75.524 E1.5974
G1 X122.388 Y75.82 E1.60844
G1 X122.313 Y75.963 E1.61381
G1 X121.854 Y76.757 E1.64431
G1 X121.709 Y76.985 E1.6533
G1 X121.5 Y77.302 E1.66593
G1 X121.367 Y77.496 E1.67375
G1 X120.848 Y78.192 E1.70263
G1 X120.599 Y78.5 E1.7158
G1 X120.392 Y78.748 E1.72654
G1 X120.283 Y78.875 E1.73211
G1 X119.582 Y79.619 E1.76611
G1 X119.31 Y79.882 E1.77869
G1 X119.069 Y80.108 E1.78968
G1 X118.935 Y80.23 E1.79571
G1 X118.232 Y80.818 E1.82619
G1 X117.947 Y81.037 E1.83815
G1 X117.7 Y81.222 E1.84841
G1 X117.562 Y81.322 E1.85408
G1 X116.73 Y81.869 E1.8872
G1 X116.387 Y82.073 E1.90047
G1 X116.034 Y82.276 E1.91401
G1 X115.11 Y82.742 E1.94843
G1 X114.759 Y82.899 E1.96122
G1 X114.46 Y83.028 E1.97205
G1 X114.312 Y83.089 E1.97738
G1 X113.424 Y83.411 E2.00879
G1 X113.081 Y83.519 E2.02075
G1 X112.721 Y83.626 E2.03324
G1 X112.541 Y83.676 E2.03946
G1 X111.698 Y83.874 E2.06826
G1 X111.292 Y83.953 E2.08202
G1 X110.893 Y84.024 E2.0955
G1 X110.727 Y84.05 E2.10108
G1 X109.814 Y84.154 E2.13165
G1 X109.522 Y84.175 E2.14138
G1 X109.201 Y84.193 E2.15208
G1 X108.966 Y84.203 E2.1599
G1 X108.027 Y84.203 E2.19113
G1 X107.654 Y84.187 E2.20355
G1 X107.329 Y84.168 E2.21438
G1 X107.136 Y84.154 E2.22081
G1 X106.169 Y84.041 E2.25319
G1 X105.861 Y83.991 E2.26357
G1 X105.552 Y83.936 E2.27401
G1 X105.333 Y83.894 E2.28143
G1 X104.433 Y83.682 E2.31218
G1 X104.066 Y83.579 E2.32486
G1 X103.772 Y83.492 E2.33506
G1 X103.608 Y83.441 E2.34077
G1 X102.624 Y83.083 E2.3756
G1 X102.254 Y82.928 E2.38894
G1 X101.859 Y82.755 E2.40328
G1 X100.979 Y82.312 E2.43605
G1 X100.699 Y82.155 E2.44673
G1 X100.266 Y81.901 E2.46342
G1 X99.448 Y81.364 E2.49597
G1 X99.131 Y81.135 E2.50898
G1 X98.856 Y80.929 E2.5204
G1 X98.725 Y80.828 E2.52591
G1 X98.005 Y80.223 E2.55719
G1 X97.739 Y79.979 E2.56919
G1 X97.457 Y79.711 E2.58213
G1 X97.326 Y79.582 E2.58824
G1 X96.744 Y78.963 E2.6165
G1 X96.497 Y78.679 E2.62902
G1 X96.24 Y78.372 E2.64234
G1 X96.156 Y78.268 E2.64679
G1 X95.616 Y77.54 E2.67693
G1 X95.34 Y77.134 E2.69326
G1 X95.033 Y76.657 E2.71213
G1 X94.945 Y76.512 E2.71777
G1 X94.606 Y75.911 E2.74072
G1 X94.508 Y75.724 E2.74774
G1 X94.347 Y75.404 E2.75966
G1 X94.232 Y75.166 E2.76845
G1 X93.865 Y74.317 E2.79921
G1 X93.727 Y73.957 E2.81203
G1 X93.592 Y73.585 E2.8252
G1 X93.53 Y73.404 E2.83156
G1 X93.273 Y72.542 E2.86148
G1 X93.183 Y72.187 E2.87366
G1 X93.101 Y71.841 E2.88548
G1 X93.067 Y71.686 E2.89076
G1 X92.907 Y70.774 E2.92156
G1 X92.856 Y70.389 E2.93448
G1 X92.819 Y70.071 E2.94512
G1 X92.802 Y69.906 E2.95064
G1 X92.745 Y68.951 E2.98246
G1 X92.739 Y68.567 E2.99523
G1 X92.741 Y68.097 E3.01087
G1 X92.798 Y67.106 E3.04388
G1 X92.838 Y66.718 E3.05686
G1 X92.874 Y66.409 E3.0672
G1 X92.896 Y66.242 E3.07281
G1 X93.067 Y65.278 E3.10537
G1 X93.154 Y64.889 E3.11863
G1 X93.236 Y64.549 E3.13026
G1 X93.28 Y64.378 E3.13613
G1 X93.545 Y63.501 E3.1666
G1 X93.654 Y63.188 E3.17763
G1 X93.817 Y62.748 E3.19323
G1 X94.204 Y61.848 E3.22582
G1 X94.409 Y61.425 E3.24145
G1 X94.576 Y61.095 E3.25375
G1 X94.635 Y60.983 E3.25796
G1 X95.088 Y60.202 E3.28799
G0 F6000 X95.426 Y60.417
G1 F1200 X95.582 Y60.172 E3.29765
G1 X95.738 Y59.933 E3.30715
G1 X95.869 Y59.739 E3.31493
G1 X96.438 Y58.973 E3.34667
G1 X96.694 Y58.659 E3.36014
G1 X96.946 Y58.36 E3.37315
G1 X97.64 Y57.621 E3.40687
G1 X97.913 Y57.357 E3.4195
G1 X98.146 Y57.139 E3.43011
G1 X98.28 Y57.017 E3.43614
G1 X98.957 Y56.45 E3.46551
G1 X99.242 Y56.231 E3.47746
G1 X99.481 Y56.053 E3.48738
G1 X99.619 Y55.953 E3.49304
G1 X100.421 Y55.426 E3.52496
G1 X100.985 Y55.093 E3.54675
G1 X101.129 Y55.012 E3.55224
G1 X102.016 Y54.567 E3.58525
G1 X102.371 Y54.409 E3.59817
G1 X102.696 Y54.271 E3.60992
G1 X102.871 Y54.2 E3.6162
G1 X103.614 Y53.93 E3.64249
G1 X103.916 Y53.833 E3.65304
G1 X104.327 Y53.71 E3.66731
G1 X104.493 Y53.664 E3.67304
G1 X105.321 Y53.47 E3.70132
G1 X105.794 Y53.379 E3.71734
G1 X106.158 Y53.316 E3.72963
G1 X106.273 Y53.298 E3.7335
G1 X107.125 Y53.199 E3.76203
G1 X107.461 Y53.174 E3.77324
G1 X107.795 Y53.155 E3.78436
G1 X107.982 Y53.147 E3.79059
G1 X108.894 Y53.147 E3.82092
G1 X109.332 Y53.166 E3.8355
G1 X109.74 Y53.191 E3.8491
G1 X110.698 Y53.302 E3.88118
G1 X111.025 Y53.355 E3.89219
G1 X111.329 Y53.408 E3.90246
G1 X111.532 Y53.447 E3.90933
G1 X112.431 Y53.661 E3.94007
G1 X112.846 Y53.779 E3.95442
G1 X113.237 Y53.898 E3.96801
G1 X114.163 Y54.235 E4.00079
G1 X114.486 Y54.37 E4.01243
G1 X114.892 Y54.548 E4.02718
G1 X115.773 Y54.989 E4.05995
G1 X116.06 Y55.15 E4.07089
G1 X116.465 Y55.387 E4.0865
G1 X117.268 Y55.914 E4.11844
G1 X117.586 Y56.144 E4.1315
G1 X117.859 Y56.348 E4.14283
G1 X117.987 Y56.447 E4.14821
G1 X118.67 Y57.023 E4.17793
G1 X118.938 Y57.269 E4.19003
G1 X119.179 Y57.497 E4.20106
G1 X119.311 Y57.626 E4.2072
G1 X119.9 Y58.251 E4.23577
G1 X120.147 Y58.535 E4.24829
G1 X120.356 Y58.782 E4.25905
G1 X120.459 Y58.908 E4.26446
G1 X121.021 Y59.661 E4.29571
G1 X121.256 Y60.007 E4.30962
G1 X121.444 Y60.295 E4.32106
G1 X121.525 Y60.423 E4.3261
G1 X121.958 Y61.174 E4.35493
G1 X122.124 Y61.491 E4.36683
G1 X122.291 Y61.823 E4.37919
G1 X122.362 Y61.971 E4.38465
G1 X122.703 Y62.763 E4.41333
G1 X122.849 Y63.144 E4.42691
G1 X122.974 Y63.488 E4.43908
G1 X123.027 Y63.642 E4.4445
G1 X123.278 Y64.483 E4.47369
G1 X123.377 Y64.873 E4.48707
G1 X123.454 Y65.195 E4.49808
G1 X123.49 Y65.358 E4.50363
G1 X123.648 Y66.255 E4.53393
G1 X123.685 Y66.535 E4.54332
G1 X123.718 Y66.814 E4.55266
G1 X123.744 Y67.061 E4.56093
G1 X123.801 Y68.005 E4.59238
G1 X123.807 Y68.389 E4.60515
G1 X123.805 Y68.848 E4.62042
G1 X123.751 Y69.793 E4.6519
G1 X123.713 Y70.165 E4.66434
G1 X123.675 Y70.492 E4.67529
G1 X123.648 Y70.694 E4.68207
G1 X123.497 Y71.553 E4.71108
G1 X123.424 Y71.887 E4.72245
G1 X123.335 Y72.261 E4.73523
G1 X123.288 Y72.444 E4.74152
G1 X123.036 Y73.278 E4.77049
G1 X122.844 Y73.827 E4.78984
G1 X122.792 Y73.968 E4.79484
G1 X122.378 Y74.938 E4.82992
G1 X122.178 Y75.349 E4.84512
G1 X122.034 Y75.634 E4.85574
G1 X121.959 Y75.777 E4.86111
G1 X121.516 Y76.542 E4.89051
G1 X121.371 Y76.77 E4.8995
G1 X121.17 Y77.076 E4.91168
G1 X121.037 Y77.27 E4.9195
G1 X120.537 Y77.94 E4.9473
G1 X120.288 Y78.248 E4.96048
G1 X120.089 Y78.488 E4.97085
G1 X119.98 Y78.615 E4.97641
G1 X119.304 Y79.331 E5.00916
G1 X119.032 Y79.594 E5.02175
G1 X118.8 Y79.812 E5.03234
G1 X118.666 Y79.934 E5.03836
G1 X117.989 Y80.501 E5.06774
G1 X117.704 Y80.72 E5.07969
G1 X117.465 Y80.898 E5.0896
G1 X117.327 Y80.998 E5.09527
G1 X116.525 Y81.525 E5.12719
G1 X115.982 Y81.846 E5.14817
G1 X115.837 Y81.928 E5.15371
G1 X114.947 Y82.377 E5.18686
G1 X114.596 Y82.534 E5.19965
G1 X114.307 Y82.658 E5.21011
G1 X114.159 Y82.719 E5.21544
G1 X113.304 Y83.03 E5.2457
G1 X112.961 Y83.138 E5.25766
G1 X112.614 Y83.24 E5.26969
G1 X112.434 Y83.29 E5.2759
G1 X111.622 Y83.482 E5.30365
G1 X111.216 Y83.561 E5.31741
G1 X110.831 Y83.628 E5.33041
G1 X110.665 Y83.654 E5.336
G1 X109.785 Y83.755 E5.36546
G1 X109.493 Y83.776 E5.37519
G1 X109.184 Y83.793 E5.38549
G1 X108.949 Y83.803 E5.39331
G1 X108.044 Y83.803 E5.42341
G1 X107.671 Y83.787 E5.43583
G1 X107.358 Y83.769 E5.44625
G1 X107.165 Y83.755 E5.45269
G1 X106.233 Y83.646 E5.4839
G1 X105.925 Y83.596 E5.49428
G1 X105.628 Y83.543 E5.50431
G1 X105.409 Y83.501 E5.51173
G1 X104.541 Y83.297 E5.54139
G1 X104.174 Y83.194 E5.55406
G1 X103.89 Y83.11 E5.56391
G1 X103.726 Y83.059 E5.56963
G1 X102.778 Y82.714 E5.60318
G1 X102.408 Y82.559 E5.61652
G1 X102.023 Y82.39 E5.63051
G1 X101.175 Y81.963 E5.66209
G1 X100.895 Y81.806 E5.67276
G1 X100.661 Y81.671 E5.68175
G1 X100.471 Y81.558 E5.6891
G1 X99.682 Y81.039 E5.72051
G1 X99.365 Y80.81 E5.73352
G1 X99.1 Y80.613 E5.7445
G1 X98.969 Y80.512 E5.75
G1 X98.276 Y79.928 E5.78014
G1 X98.01 Y79.684 E5.79215
G1 X97.738 Y79.426 E5.80462
G1 X97.607 Y79.297 E5.81073
G1 X97.046 Y78.7 E5.83798
G1 X96.799 Y78.416 E5.8505
G1 X96.551 Y78.12 E5.86334
G1 X96.467 Y78.016 E5.86779
G1 X95.947 Y77.315 E5.89682
G1 X95.671 Y76.909 E5.91315
G1 X95.375 Y76.45 E5.93131
G1 X95.287 Y76.305 E5.93696
G1 X94.96 Y75.725 E5.9591
G1 X94.862 Y75.538 E5.96612
G1 X94.707 Y75.23 E5.97759
G1 X94.592 Y74.992 E5.98638
G1 X94.238 Y74.174 E6.01603
G1 X94.1 Y73.814 E6.02885
G1 X93.97 Y73.455 E6.04155
G1 X93.908 Y73.274 E6.04791
G1 X93.661 Y72.444 E6.07672
G1 X93.571 Y72.089 E6.0889
G1 X93.492 Y71.755 E6.10031
G1 X93.458 Y71.6 E6.10559
G1 X93.304 Y70.721 E6.13527
G1 X93.253 Y70.336 E6.14819
G1 X93.217 Y70.03 E6.15844
G1 X93.2 Y69.865 E6.16395
G1 X93.145 Y68.945 E6.19461
G1 X93.139 Y68.561 E6.20738
G1 X93.141 Y68.102 E6.22265
G1 X93.196 Y67.147 E6.25446
G1 X93.236 Y66.759 E6.26744
G1 X93.271 Y66.462 E6.27738
G1 X93.293 Y66.295 E6.28299
G1 X93.458 Y65.365 E6.3144
G1 X93.545 Y64.976 E6.32766
G1 X93.623 Y64.649 E6.33884
G1 X93.667 Y64.478 E6.34471
G1 X93.923 Y63.633 E6.37408
G1 X94.032 Y63.32 E6.3851
G1 X94.13 Y63.05 E6.39466
G1 X94.191 Y62.889 E6.40038
G1 X94.564 Y62.022 E6.43177
G1 X94.769 Y61.599 E6.44741
G1 X94.989 Y61.17 E6.46344
G1 X95.426 Y60.417 E6.4924
G0 F6000 X95.763 Y60.632
G1 F1200 X95.919 Y60.387 E6.50206
G1 X96.07 Y60.157 E6.51121
G1 X96.201 Y59.963 E6.519
G1 X96.748 Y59.226 E6.54953
G1 X97.151 Y58.735 E6.57065
G1 X97.25 Y58.619 E6.57572
G1 X97.918 Y57.909 E6.60815
G1 X98.191 Y57.645 E6.62078
G1 X98.415 Y57.435 E6.63099
G1 X98.549 Y57.313 E6.63702
G1 X99.201 Y56.767 E6.6653
G1 X99.486 Y56.548 E6.67726
G1 X99.854 Y56.277 E6.69246
G1 X100.625 Y55.769 E6.72317
G1 X100.968 Y55.565 E6.73644
G1 X101.325 Y55.361 E6.75012
G1 X102.179 Y54.932 E6.7819
G1 X102.534 Y54.774 E6.79483
G1 X102.846 Y54.641 E6.80611
G1 X103.021 Y54.57 E6.81239
G1 X103.737 Y54.311 E6.83771
G1 X104.039 Y54.214 E6.84826
G1 X104.434 Y54.095 E6.86199
G1 X104.6 Y54.049 E6.86771
G1 X105.397 Y53.863 E6.89494
G1 X105.87 Y53.772 E6.91096
G1 X106.22 Y53.711 E6.92277
G1 X106.335 Y53.693 E6.92664
G1 X107.155 Y53.598 E6.9541
G1 X107.491 Y53.573 E6.96531
G1 X107.812 Y53.554 E6.976
G1 X107.999 Y53.546 E6.98223
G1 X108.877 Y53.547 E7.01143
G1 X109.315 Y53.566 E7.02601
G1 X109.712 Y53.59 E7.03924
G1 X110.634 Y53.696 E7.07011
G1 X110.961 Y53.749 E7.08112
G1 X111.253 Y53.801 E7.09099
G1 X111.456 Y53.84 E7.09786
G1 X112.322 Y54.046 E7.12747
G1 X112.737 Y54.164 E7.14182
G1 X113.117 Y54.279 E7.15503
G1 X114.008 Y54.604 E7.18657
G1 X114.541 Y54.829 E7.20581
G1 X114.73 Y54.913 E7.21269
G1 X115.577 Y55.338 E7.24421
G1 X115.864 Y55.499 E7.25516
G1 X116.261 Y55.731 E7.27045
G1 X117.034 Y56.238 E7.3012
G1 X117.352 Y56.468 E7.31425
G1 X117.614 Y56.665 E7.32515
G1 X117.742 Y56.764 E7.33054
G1 X118.399 Y57.318 E7.35912
G1 X118.667 Y57.564 E7.37122
G1 X118.899 Y57.783 E7.38183
G1 X119.031 Y57.912 E7.38797
G1 X119.598 Y58.513 E7.41545
G1 X119.845 Y58.797 E7.42797
G1 X120.046 Y59.035 E7.43833
G1 X120.149 Y59.161 E7.44374
G1 X120.69 Y59.886 E7.47383
G1 X120.925 Y60.232 E7.48774
G1 X121.106 Y60.509 E7.49875
G1 X121.187 Y60.637 E7.50378
G1 X121.604 Y61.359 E7.53152
G1 X121.77 Y61.676 E7.54342
G1 X121.931 Y61.996 E7.55533
G1 X122.002 Y62.144 E7.56079
G1 X122.33 Y62.906 E7.58838
G1 X122.476 Y63.287 E7.60195
G1 X122.596 Y63.618 E7.61367
G1 X122.649 Y63.772 E7.61908
G1 X122.89 Y64.581 E7.64716
G1 X122.989 Y64.971 E7.66054
G1 X123.063 Y65.281 E7.67114
G1 X123.099 Y65.444 E7.67669
G1 X123.251 Y66.308 E7.70587
G1 X123.288 Y66.588 E7.71527
G1 X123.32 Y66.856 E7.72424
G1 X123.346 Y67.103 E7.7325
G1 X123.401 Y68.012 E7.76279
G1 X123.407 Y68.396 E7.77556
G1 X123.405 Y68.843 E7.79043
G1 X123.353 Y69.753 E7.82075
G1 X123.315 Y70.125 E7.83319
G1 X123.278 Y70.439 E7.8437
G1 X123.251 Y70.641 E7.85048
G1 X123.106 Y71.468 E7.87841
G1 X123.033 Y71.802 E7.88978
G1 X122.947 Y72.161 E7.90205
G1 X122.9 Y72.344 E7.90834
G1 X122.659 Y73.147 E7.93622
G1 X122.537 Y73.499 E7.94861
G1 X122.417 Y73.829 E7.96029
G1 X122.019 Y74.763 E7.99406
G1 X121.819 Y75.174 E8.00926
G1 X121.68 Y75.449 E8.01951
G1 X121.605 Y75.592 E8.02488
G1 X121.179 Y76.328 E8.05317
G1 X121.034 Y76.556 E8.06215
G1 X120.84 Y76.85 E8.07387
G1 X120.707 Y77.044 E8.08169
G1 X120.226 Y77.689 E8.10845
G1 X119.977 Y77.997 E8.12163
G1 X119.785 Y78.227 E8.13159
G1 X119.676 Y78.354 E8.13716
G1 X119.026 Y79.044 E8.16869
G1 X118.754 Y79.307 E8.18127
G1 X118.531 Y79.516 E8.19144
G1 X118.397 Y79.638 E8.19746
G1 X117.745 Y80.184 E8.22575
G1 X117.46 Y80.403 E8.2377
G1 X117.092 Y80.674 E8.2529
G1 X116.321 Y81.182 E8.28361
G1 X115.978 Y81.386 E8.29689
G1 X115.64 Y81.58 E8.30985
G1 X114.784 Y82.012 E8.34174
G1 X114.433 Y82.169 E8.35453
G1 X114.007 Y82.349 E8.36991
G1 X113.183 Y82.648 E8.39907
G1 X112.84 Y82.756 E8.41103
G1 X112.507 Y82.855 E8.42258
G1 X112.327 Y82.905 E8.42879
G1 X111.545 Y83.089 E8.45551
G1 X111.139 Y83.168 E8.46927
G1 X110.769 Y83.233 E8.48177
G1 X110.603 Y83.259 E8.48735
G1 X109.757 Y83.356 E8.51568
G1 X109.465 Y83.377 E8.52541
