;FLAVOR:Marlin
;TIME:1237
;Filament used: 0.900412m
;Layer height: 0.3
;MINX:77.075
;MINY:58.01
;MINZ:0.2
;MAXX:135.049
;MAXY:120.597
;MAXZ:15.5
;Generated with Creality Slicer 4.8.2-191
M140 S65
M105
M190 S65
M104 S205
M105
M109 S205
M82 ;absolute extrusion mode

G28 ;Home

G92 E0 ;Reset Extruder
G1 Z2.0 F3000 ;Move Z Axis up
G1 X10.1 Y20 Z0.28 F5000.0 ;Move to start position
G1 X10.1 Y200.0 Z0.28 F1500.0 E15 ;Draw the first line
G1 X10.4 Y200.0 Z0.28 F5000.0 ;Move to side a little
G1 X10.4 Y20 Z0.28 F1500.0 E30 ;Draw the second line
G92 E0 ;Reset Extruder
G1 Z2.0 F3000 ;Move Z Axis up

G92 E0
G92 E0
G1 F2400 E-0.8
;LAYER_COUNT:52
;LAYER:0
M107
G0 F6000 X83.66 Y68.604 Z0.2
;TYPE:SKIRT
G1 F2400 E0
G1 F1200 X83.871 Y68.347 E0.01106
G1 X84.077 Y68.104 E0.02166
G1 X84.315 Y67.832 E0.03368
G1 X84.844 Y67.248 E0.05988
G1 X85.072 Y67.004 E0.07099
G1 X85.278 Y66.79 E0.08087
G1 X85.528 Y66.539 E0.09265
G1 X86.144 Y65.939 E0.12125
G1 X86.381 Y65.714 E0.13212
G1 X86.624 Y65.491 E0.14309
G1 X86.9 Y65.247 E0.15535
G1 X87.568 Y64.674 E0.18462
G1 X87.937 Y64.371 E0.2005
G1 X88.384 Y64.02 E0.2194
G1 X88.632 Y63.831 E0.22977
G1 X88.84 Y63.677 E0.23838
G1 X89.049 Y63.526 E0.24696
G1 X89.496 Y63.211 E0.26514
G1 X89.759 Y63.031 E0.27574
G1 X90.425 Y62.59 E0.30231
G1 X90.722 Y62.401 E0.31402
G1 X90.957 Y62.256 E0.3232
G1 X91.254 Y62.079 E0.3347
G1 X92.006 Y61.647 E0.36355
G1 X92.338 Y61.463 E0.37617
G1 X92.61 Y61.319 E0.38641
G1 X92.893 Y61.175 E0.39697
G1 X93.605 Y60.824 E0.42337
G1 X93.925 Y60.672 E0.43516
G1 X94.205 Y60.545 E0.44538
G1 X94.509 Y60.413 E0.45641
G1 X95.287 Y60.088 E0.48445
G1 X95.636 Y59.949 E0.49694
G1 X95.956 Y59.828 E0.50832
G1 X96.265 Y59.717 E0.51924
G1 X96.985 Y59.469 E0.54457
G1 X97.292 Y59.368 E0.55532
G1 X97.603 Y59.271 E0.56616
G1 X97.957 Y59.167 E0.57843
G1 X98.763 Y58.945 E0.60623
G1 X99.126 Y58.852 E0.6187
G1 X99.448 Y58.775 E0.62971
G1 X99.75 Y58.707 E0.64
G1 X100.528 Y58.544 E0.66644
G1 X100.876 Y58.477 E0.67823
G1 X101.177 Y58.424 E0.68839
G1 X101.516 Y58.369 E0.69982
G1 X102.328 Y58.252 E0.7271
G1 X102.656 Y58.21 E0.7381
G1 X102.973 Y58.174 E0.74871
G1 X103.337 Y58.139 E0.76088
G1 X104.15 Y58.074 E0.788
G1 X104.497 Y58.052 E0.79957
G1 X104.829 Y58.036 E0.81062
G1 X105.164 Y58.025 E0.82177
G1 X105.955 Y58.011 E0.84808
G1 X106.301 Y58.01 E0.85959
G1 X106.592 Y58.014 E0.86927
G1 X106.937 Y58.024 E0.88075
G1 X107.823 Y58.064 E0.91025
G1 X108.144 Y58.083 E0.92094
G1 X108.399 Y58.102 E0.92945
G1 X108.78 Y58.137 E0.94217
G1 X109.638 Y58.231 E0.97088
G1 X109.955 Y58.271 E0.98151
G1 X110.221 Y58.308 E0.99044
G1 X110.593 Y58.366 E1.00296
G1 X111.443 Y58.514 E1.03166
G1 X111.75 Y58.572 E1.04205
G1 X112.035 Y58.63 E1.05173
G1 X112.391 Y58.709 E1.06385
G1 X113.184 Y58.898 E1.09097
G1 X113.535 Y58.987 E1.10301
G1 X113.802 Y59.06 E1.11222
G1 X114.118 Y59.152 E1.12316
G1 X114.965 Y59.411 E1.15262
G1 X115.311 Y59.523 E1.16472
G1 X115.606 Y59.624 E1.17509
G1 X115.924 Y59.738 E1.18633
G1 X116.664 Y60.017 E1.21263
G1 X116.984 Y60.144 E1.22408
G1 X117.255 Y60.256 E1.23383
G1 X117.569 Y60.391 E1.2452
G1 X118.34 Y60.738 E1.27332
G1 X118.643 Y60.88 E1.28445
G1 X118.918 Y61.014 E1.29463
G1 X119.239 Y61.177 E1.3066
G1 X119.962 Y61.559 E1.3338
G1 X120.256 Y61.72 E1.34495
G1 X120.506 Y61.862 E1.35451
G1 X120.827 Y62.052 E1.36692
G1 X121.552 Y62.497 E1.39521
G1 X121.806 Y62.658 E1.40521
G1 X122.079 Y62.836 E1.41605
G1 X122.403 Y63.055 E1.42906
G1 X123.055 Y63.514 E1.45558
G1 X123.315 Y63.703 E1.46627
G1 X123.832 Y64.09 E1.48775
G1 X124.152 Y64.339 E1.50124
G1 X124.36 Y64.507 E1.51013
G1 X124.605 Y64.711 E1.52073
G1 X125.017 Y65.064 E1.53878
G1 X125.258 Y65.276 E1.54945
G1 X125.85 Y65.814 E1.57606
G1 X126.099 Y66.047 E1.5874
G1 X126.311 Y66.252 E1.59721
G1 X126.56 Y66.501 E1.60892
G1 X127.173 Y67.133 E1.63821
G1 X127.411 Y67.387 E1.64978
G1 X127.604 Y67.599 E1.65932
G1 X127.845 Y67.872 E1.67143
G1 X128.367 Y68.485 E1.69821
G1 X128.536 Y68.689 E1.70702
G1 X128.729 Y68.927 E1.71721
G1 X128.977 Y69.245 E1.73062
G1 X129.492 Y69.93 E1.75913
G1 X129.727 Y70.254 E1.77244
G1 X129.883 Y70.478 E1.78152
G1 X130.043 Y70.714 E1.791
G1 X130.506 Y71.417 E1.819
G1 X130.715 Y71.748 E1.83202
G1 X130.883 Y72.024 E1.84277
G1 X131.045 Y72.298 E1.85335
G1 X131.429 Y72.972 E1.87915
G1 X131.578 Y73.242 E1.88941
G1 X131.739 Y73.544 E1.90079
G1 X131.91 Y73.88 E1.91333
G1 X132.274 Y74.623 E1.94085
G1 X132.417 Y74.926 E1.952
G1 X132.522 Y75.158 E1.96047
G1 X132.665 Y75.487 E1.9724
G1 X133.011 Y76.323 E2.00249
G1 X133.138 Y76.646 E2.01403
G1 X133.235 Y76.903 E2.02317
G1 X133.353 Y77.231 E2.03476
G1 X133.614 Y77.995 E2.06162
G1 X133.719 Y78.316 E2.07285
G1 X133.823 Y78.654 E2.08461
G1 X133.916 Y78.975 E2.09573
G1 X134.119 Y79.714 E2.12122
G1 X134.21 Y80.069 E2.13341
G1 X134.282 Y80.37 E2.1437
G1 X134.355 Y80.695 E2.15478
G1 X134.534 Y81.558 E2.18409
G1 X134.6 Y81.906 E2.19587
G1 X134.647 Y82.176 E2.20499
G1 X134.701 Y82.52 E2.21657
G1 X134.816 Y83.332 E2.24385
G1 X134.86 Y83.677 E2.25542
G1 X134.889 Y83.942 E2.26428
G1 X134.921 Y84.283 E2.27567
G1 X134.991 Y85.18 E2.3056
G1 X135.013 Y85.543 E2.31769
G1 X135.027 Y85.855 E2.32808
G1 X135.036 Y86.164 E2.33836
G1 X135.049 Y86.94 E2.36418
G1 X135.049 Y87.317 E2.37672
G1 X135.044 Y87.602 E2.3862
G1 X135.034 Y87.916 E2.39665
G1 X134.993 Y88.804 E2.42621
G1 X134.969 Y89.189 E2.43904
G1 X134.948 Y89.447 E2.44765
G1 X134.918 Y89.76 E2.45811
G1 X134.824 Y90.613 E2.48665
G1 X134.775 Y90.994 E2.49943
G1 X134.739 Y91.241 E2.50773
G1 X134.687 Y91.564 E2.51861
G1 X134.533 Y92.438 E2.54813
G1 X134.47 Y92.769 E2.55934
G1 X134.397 Y93.12 E2.57126
G1 X134.321 Y93.458 E2.58278
G1 X134.153 Y94.155 E2.60663
G1 X134.066 Y94.49 E2.61814
G1 X133.988 Y94.774 E2.62794
G1 X133.891 Y95.106 E2.63944
G1 X133.627 Y95.961 E2.6692
G1 X133.53 Y96.262 E2.67972
G1 X133.436 Y96.538 E2.68942
G1 X133.308 Y96.894 E2.702
G1 X133.017 Y97.661 E2.72929
G1 X132.88 Y98.003 E2.74154
G1 X132.765 Y98.278 E2.75145
G1 X132.64 Y98.567 E2.76193
G1 X132.299 Y99.321 E2.78945
G1 X132.152 Y99.632 E2.80089
G1 X132.023 Y99.895 E2.81063
G1 X131.863 Y100.209 E2.82236
G1 X131.467 Y100.955 E2.85045
G1 X131.281 Y101.291 E2.86322
G1 X131.104 Y101.598 E2.87501
G1 X130.944 Y101.867 E2.88542
G1 X130.543 Y102.519 E2.91088
G1 X130.375 Y102.783 E2.92128
G1 X130.208 Y103.038 E2.93142
G1 X130 Y103.345 E2.94376
G1 X129.519 Y104.028 E2.97154
G1 X129.325 Y104.294 E2.98249
G1 X129.151 Y104.526 E2.99214
G1 X128.923 Y104.82 E3.00451
G1 X128.121 Y105.817 E3.04707
G1 X126.541 Y107.84 E3.13244
G1 X125.064 Y109.848 E3.21535
G1 X123.624 Y111.925 E3.29941
G1 X121.617 Y115.042 E3.42272
G1 X121.427 Y115.351 E3.43478
G1 X120.902 Y116.128 E3.46597
G1 X120.313 Y116.858 E3.49717
G1 X119.663 Y117.534 E3.52836
G1 X118.959 Y118.153 E3.55954
G1 X118.204 Y118.71 E3.59074
G1 X117.404 Y119.2 E3.62195
G1 X116.566 Y119.62 E3.65312
G1 X115.695 Y119.968 E3.68432
G1 X114.797 Y120.24 E3.71553
G1 X113.88 Y120.434 E3.7467
G1 X112.949 Y120.55 E3.77791
G1 X112.43 Y120.58 E3.7952
G1 X112.104 Y120.591 E3.80605
G1 X111.733 Y120.597 E3.81839
G1 X100.613 Y120.596 E4.18824
G1 X99.912 Y120.586 E4.21156
G1 X98.976 Y120.533 E4.24274
G1 X98.047 Y120.4 E4.27395
G1 X97.134 Y120.188 E4.30513
G1 X96.241 Y119.9 E4.33633
G1 X95.377 Y119.536 E4.36752
G1 X94.546 Y119.1 E4.39873
G1 X93.756 Y118.595 E4.42991
G1 X93.012 Y118.025 E4.46109
G1 X92.319 Y117.393 E4.49228
G1 X91.682 Y116.704 E4.52349
G1 X91.106 Y115.964 E4.55468
G1 X90.791 Y115.497 E4.57342
G1 X90.319 Y114.756 E4.60264
G1 X89.752 Y113.838 E4.63853
G1 X88.351 Y111.704 E4.72343
G1 X86.921 Y109.655 E4.80654
G1 X85.424 Y107.634 E4.89019
G1 X83.753 Y105.508 E4.98013
G1 X83.461 Y105.148 E4.99554
G1 X83.248 Y104.876 E5.00703
G1 X82.716 Y104.175 E5.0363
G1 X82.494 Y103.873 E5.04877
G1 X82.311 Y103.614 E5.05932
G1 X82.126 Y103.343 E5.07023
G1 X81.678 Y102.667 E5.0972
G1 X81.503 Y102.395 E5.10796
G1 X81.339 Y102.131 E5.1183
G1 X81.154 Y101.821 E5.13031
G1 X80.744 Y101.11 E5.1576
G1 X80.576 Y100.808 E5.1691
G1 X80.448 Y100.569 E5.17812
G1 X80.291 Y100.265 E5.1895
G1 X79.905 Y99.487 E5.21838
G1 X79.744 Y99.147 E5.23089
G1 X79.625 Y98.885 E5.24047
G1 X79.493 Y98.582 E5.25146
G1 X79.18 Y97.834 E5.27843
G1 X79.054 Y97.52 E5.28968
G1 X78.925 Y97.183 E5.30168
G1 X78.811 Y96.871 E5.31273
G1 X78.55 Y96.122 E5.33911
G1 X78.442 Y95.796 E5.35053
G1 X78.367 Y95.557 E5.35886
G1 X78.263 Y95.207 E5.37101
G1 X78.018 Y94.325 E5.40145
G1 X77.923 Y93.957 E5.4141
G1 X77.85 Y93.654 E5.42446
G1 X77.782 Y93.352 E5.43476
G1 X77.625 Y92.609 E5.46002
G1 X77.56 Y92.281 E5.47114
G1 X77.505 Y91.975 E5.48148
G1 X77.448 Y91.624 E5.49331
G1 X77.324 Y90.778 E5.52174
G1 X77.281 Y90.447 E5.53285
G1 X77.25 Y90.179 E5.54182
G1 X77.214 Y89.818 E5.55389
G1 X77.143 Y88.956 E5.58265
G1 X77.12 Y88.615 E5.59402
G1 X77.104 Y88.302 E5.60444
G1 X77.092 Y87.958 E5.61589
G1 X77.076 Y87.152 E5.64271
G1 X77.075 Y86.779 E5.65511
G1 X77.079 Y86.496 E5.66453
G1 X77.088 Y86.185 E5.67487
G1 X77.125 Y85.313 E5.7039
G1 X77.144 Y84.977 E5.7151
G1 X77.163 Y84.717 E5.72377
G1 X77.197 Y84.348 E5.73609
G1 X77.288 Y83.498 E5.76452
G1 X77.33 Y83.156 E5.77598
G1 X77.37 Y82.868 E5.78566
G1 X77.423 Y82.521 E5.79733
G1 X77.564 Y81.699 E5.82507
G1 X77.617 Y81.415 E5.83468
G1 X77.679 Y81.103 E5.84526
G1 X77.769 Y80.693 E5.85922
G1 X77.959 Y79.897 E5.88644
G1 X78.042 Y79.569 E5.89769
G1 X78.121 Y79.278 E5.90772
G1 X78.212 Y78.963 E5.91863
G1 X78.445 Y78.196 E5.94529
G1 X78.551 Y77.865 E5.95685
G1 X78.658 Y77.549 E5.96794
G1 X78.773 Y77.226 E5.97935
G1 X79.06 Y76.458 E6.00662
G1 X79.181 Y76.15 E6.01762
G1 X79.288 Y75.888 E6.02704
G1 X79.434 Y75.546 E6.0394
G1 X79.799 Y74.732 E6.06907
G1 X79.937 Y74.436 E6.07994
G1 X80.047 Y74.209 E6.08833
G1 X80.214 Y73.878 E6.10066
G1 X80.605 Y73.136 E6.12855
G1 X80.765 Y72.843 E6.13966
G1 X80.923 Y72.564 E6.15032
G1 X81.097 Y72.269 E6.16171
G1 X81.51 Y71.59 E6.18815
G1 X81.675 Y71.327 E6.19847
G1 X81.844 Y71.066 E6.20881
G1 X82.065 Y70.738 E6.22197
G1 X82.55 Y70.045 E6.2501
G1 X82.742 Y69.779 E6.26101
G1 X82.9 Y69.567 E6.26981
G1 X83.118 Y69.284 E6.28169
G1 X83.66 Y68.604 E6.31061
G0 F6000 X83.973 Y68.853
G1 F1200 X84.176 Y68.606 E6.32125
G1 X84.382 Y68.363 E6.33184
G1 X84.612 Y68.101 E6.34344
G1 X85.141 Y67.517 E6.36964
G1 X85.36 Y67.282 E6.38033
G1 X85.566 Y67.068 E6.39021
G1 X85.807 Y66.826 E6.40157
G1 X86.423 Y66.226 E6.43017
G1 X86.652 Y66.009 E6.44066
G1 X86.895 Y65.786 E6.45163
G1 X87.161 Y65.55 E6.46346
G1 X87.829 Y64.977 E6.49273
G1 X88.184 Y64.686 E6.508
G1 X88.631 Y64.335 E6.5269
G1 X88.87 Y64.153 E6.53689
G1 X89.279 Y63.853 E6.55376
G1 X89.726 Y63.538 E6.57195
G1 X89.98 Y63.365 E6.58217
G1 X90.646 Y62.924 E6.60874
G1 X90.932 Y62.741 E6.62003
G1 X91.167 Y62.596 E6.62922
G1 X91.453 Y62.426 E6.64028
G1 X92.205 Y61.994 E6.66913
G1 X92.525 Y61.817 E6.68129
G1 X92.797 Y61.673 E6.69153
G1 X93.07 Y61.534 E6.70172
G1 X93.782 Y61.183 E6.72812
G1 X94.09 Y61.037 E6.73946
G1 X94.37 Y60.91 E6.74968
G1 X94.663 Y60.782 E6.76032
G1 X95.441 Y60.457 E6.78836
G1 X95.778 Y60.323 E6.80042
G1 X96.098 Y60.202 E6.8118
G1 X96.395 Y60.095 E6.8223
G1 X97.115 Y59.847 E6.84763
G1 X97.411 Y59.75 E6.85799
G1 X97.722 Y59.653 E6.86882
G1 X98.063 Y59.553 E6.88064
G1 X98.869 Y59.331 E6.90845
G1 X99.219 Y59.241 E6.92047
G1 X99.541 Y59.164 E6.93148
G1 X99.832 Y59.098 E6.9414
G1 X100.61 Y58.935 E6.96784
G1 X100.946 Y58.871 E6.97922
G1 X101.247 Y58.818 E6.98938
G1 X101.573 Y58.765 E7.00037
G1 X102.385 Y58.648 E7.02766
G1 X102.701 Y58.608 E7.03825
G1 X103.018 Y58.572 E7.04886
G1 X103.369 Y58.538 E7.06059
G1 X104.182 Y58.473 E7.08772
G1 X104.517 Y58.451 E7.09888
G1 X104.849 Y58.435 E7.10994
G1 X105.171 Y58.425 E7.12065
G1 X105.962 Y58.411 E7.14697
G1 X106.296 Y58.41 E7.15807
G1 X106.587 Y58.414 E7.16775
G1 X106.919 Y58.424 E7.1788
G1 X107.805 Y58.464 E7.2083
G1 X108.115 Y58.482 E7.21863
G1 X108.37 Y58.501 E7.22713
G1 X108.736 Y58.535 E7.23936
G1 X109.594 Y58.629 E7.26807
G1 X109.9 Y58.667 E7.27832
G1 X110.166 Y58.704 E7.28725
G1 X110.524 Y58.76 E7.29931
G1 X111.374 Y58.908 E7.328
G1 X111.67 Y58.964 E7.33802
G1 X111.955 Y59.022 E7.3477
G1 X112.299 Y59.098 E7.35941
G1 X113.092 Y59.287 E7.38653
G1 X113.43 Y59.373 E7.39813
G1 X113.697 Y59.446 E7.40733
G1 X114.001 Y59.534 E7.41786
G1 X114.848 Y59.793 E7.44732
G1 X115.181 Y59.901 E7.45896
G1 X115.476 Y60.002 E7.46933
G1 X115.783 Y60.113 E7.48019
G1 X116.523 Y60.392 E7.5065
G1 X116.832 Y60.514 E7.51754
G1 X117.103 Y60.626 E7.5273
G1 X117.404 Y60.756 E7.5382
G1 X118.175 Y61.103 E7.56632
G1 X118.468 Y61.24 E7.57708
G1 X118.743 Y61.374 E7.58726
G1 X119.052 Y61.531 E7.59878
G1 X119.775 Y61.913 E7.62598
G1 X120.058 Y62.068 E7.63671
G1 X120.308 Y62.21 E7.64628
G1 X120.618 Y62.393 E7.65825
G1 X121.343 Y62.838 E7.68654
G1 X121.587 Y62.993 E7.69616
G1 X121.86 Y63.171 E7.707
G1 X122.173 Y63.382 E7.71955
G1 X122.825 Y63.841 E7.74607
G1 X123.075 Y64.023 E7.75636
G1 X123.592 Y64.41 E7.77784
G1 X123.9 Y64.65 E7.79082
G1 X124.108 Y64.818 E7.79972
G1 X124.345 Y65.015 E7.80997
G1 X124.757 Y65.368 E7.82801
G1 X124.989 Y65.572 E7.83829
G1 X125.581 Y66.11 E7.86489
G1 X125.82 Y66.335 E7.87581
G1 X126.032 Y66.54 E7.88562
G1 X126.273 Y66.78 E7.89693
G1 X126.886 Y67.412 E7.92622
G1 X127.115 Y67.656 E7.93735
G1 X127.308 Y67.868 E7.94688
G1 X127.54 Y68.132 E7.95857
G1 X128.062 Y68.745 E7.98535
G1 X128.225 Y68.941 E7.99383
G1 X128.418 Y69.179 E8.00402
G1 X128.658 Y69.485 E8.01695
G1 X129.173 Y70.17 E8.04546
G1 X129.398 Y70.482 E8.05825
G1 X129.554 Y70.706 E8.06733
G1 X129.709 Y70.934 E8.0765
G1 X130.172 Y71.637 E8.1045
G1 X130.374 Y71.956 E8.11706
G1 X130.542 Y72.232 E8.1278
G1 X130.697 Y72.496 E8.13799
G1 X131.081 Y73.17 E8.16379
G1 X131.225 Y73.43 E8.17367
G1 X131.386 Y73.732 E8.18505
G1 X131.551 Y74.056 E8.19715
G1 X131.915 Y74.799 E8.22467
G1 X132.053 Y75.091 E8.23541
G1 X132.158 Y75.323 E8.24388
G1 X132.295 Y75.64 E8.25536
G1 X132.641 Y76.476 E8.28546
G1 X132.764 Y76.787 E8.29658
G1 X132.861 Y77.044 E8.30572
G1 X132.975 Y77.36 E8.31689
G1 X133.236 Y78.124 E8.34374
G1 X133.336 Y78.434 E8.35458
G1 X133.44 Y78.772 E8.36634
G1 X133.53 Y79.081 E8.37704
G1 X133.733 Y79.82 E8.40253
G1 X133.821 Y80.162 E8.41428
G1 X133.893 Y80.463 E8.42457
G1 X133.963 Y80.776 E8.43524
G1 X134.142 Y81.639 E8.46455
G1 X134.206 Y81.974 E8.4759
G1 X134.253 Y82.244 E8.48501
G1 X134.305 Y82.576 E8.49619
G1 X134.42 Y83.388 E8.52347
G1 X134.462 Y83.721 E8.53463
G1 X134.491 Y83.986 E8.5435
G1 X134.522 Y84.314 E8.55445
G1 X134.592 Y85.211 E8.58438
G1 X134.613 Y85.561 E8.59604
G1 X134.627 Y85.873 E8.60643
G1 X134.637 Y86.17 E8.61631
G1 X134.65 Y86.946 E8.64213
G1 X134.649 Y87.31 E8.65423
G1 X134.644 Y87.595 E8.66371
G1 X134.635 Y87.898 E8.6738
G1 X134.594 Y88.786 E8.70336
G1 X134.57 Y89.157 E8.71573
G1 X134.549 Y89.415 E8.72434
G1 X134.52 Y89.716 E8.73439
G1 X134.426 Y90.569 E8.76294
G1 X134.379 Y90.937 E8.77528
G1 X134.343 Y91.184 E8.78358
G1 X134.293 Y91.494 E8.79402
G1 X134.139 Y92.368 E8.82354
G1 X134.078 Y92.687 E8.83434
G1 X134.005 Y93.038 E8.84627
G1 X133.932 Y93.364 E8.85738
G1 X133.764 Y94.061 E8.88122
G1 X133.68 Y94.384 E8.89232
G1 X133.602 Y94.668 E8.90212
G1 X133.509 Y94.988 E8.9132
G1 X133.245 Y95.843 E8.94297
G1 X133.151 Y96.133 E8.9531
G1 X133.057 Y96.409 E8.9628
G1 X132.934 Y96.752 E8.97492
G1 X132.643 Y97.519 E9.00221
G1 X132.511 Y97.849 E9.01403
G1 X132.396 Y98.124 E9.02394
G1 X132.275 Y98.402 E9.03403
G1 X131.934 Y99.156 E9.06155
G1 X131.793 Y99.456 E9.07258
G1 X131.664 Y99.719 E9.08232
G1 X131.51 Y100.021 E9.09359
G1 X131.114 Y100.767 E9.12168
G1 X130.934 Y101.091 E9.13401
G1 X130.757 Y101.398 E9.1458
G1 X130.603 Y101.657 E9.15582
G1 X130.202 Y102.309 E9.18128
G1 X130.041 Y102.563 E9.19128
G1 X129.874 Y102.818 E9.20142
G1 X129.673 Y103.114 E9.21332
G1 X129.192 Y103.797 E9.2411
G1 X129.005 Y104.054 E9.25168
G1 X128.831 Y104.286 E9.26132
G1 X128.611 Y104.569 E9.27324
G1 X127.841 Y105.527 E9.31412
G1 X126.22 Y107.602 E9.4017
G1 X124.728 Y109.629 E9.48541
G1 X123.305 Y111.682 E9.5685
G1 X121.274 Y114.837 E9.69329
G1 X121.087 Y115.141 E9.70517
G1 X120.57 Y115.904 E9.73582
G1 X119.99 Y116.619 E9.76644
G1 X119.35 Y117.28 E9.79704
G1 X118.655 Y117.884 E9.82767
G1 X117.91 Y118.425 E9.85829
G1 X117.121 Y118.899 E9.8889
