;FLAVOR:Marlin
;TIME:3716
;Filament used: 3.44043m
;Layer height: 0.3
;MINX:93.308
;MINY:73.596
;MINZ:0.2
;MAXX:151.285
;MAXY:131.572
;MAXZ:69.8
;Generated with Creality Slicer 4.8.2-191
M140 S65
M105
M190 S65
M104 S205
M105
M109 S205
M82 ;absolute extrusion mode

G28 ;Home

G92 E0 ;Reset Extruder
G1 Z2.0 F3000 ;Move Z Axis up
G1 X10.1 Y20 Z0.28 F5000.0 ;Move to start position
G1 X10.1 Y200.0 Z0.28 F1500.0 E15 ;Draw the first line
G1 X10.4 Y200.0 Z0.28 F5000.0 ;Move to side a little
G1 X10.4 Y20 Z0.28 F1500.0 E30 ;Draw the second line
G92 E0 ;Reset Extruder
G1 Z2.0 F3000 ;Move Z Axis up

G92 E0
G92 E0
G1 F2400 E-0.8
;LAYER_COUNT:233
;LAYER:0
M107
G0 F6000 X100.124 Y83.914 Z0.2
;TYPE:SKIRT
G1 F2400 E0
G1 F1200 X100.282 Y83.727 E0.00814
G1 X100.512 Y83.462 E0.01981
G1 X100.822 Y83.118 E0.03522
G1 X101.42 Y82.475 E0.06442
G1 X101.691 Y82.194 E0.0774
G1 X101.948 Y81.94 E0.08942
G1 X102.347 Y81.558 E0.1078
G1 X103.017 Y80.94 E0.13811
G1 X103.278 Y80.707 E0.14975
G1 X103.452 Y80.557 E0.15739
G1 X103.69 Y80.358 E0.16771
G1 X104.252 Y79.902 E0.19178
G1 X104.751 Y79.511 E0.21286
G1 X105.031 Y79.3 E0.22453
G1 X105.421 Y79.016 E0.24057
G1 X105.751 Y78.786 E0.25395
G1 X106.011 Y78.609 E0.26441
G1 X106.612 Y78.208 E0.28844
G1 X106.895 Y78.025 E0.29965
G1 X107.257 Y77.804 E0.31376
G1 X107.722 Y77.531 E0.33169
G1 X107.938 Y77.407 E0.33998
G1 X108.552 Y77.065 E0.36335
G1 X108.987 Y76.833 E0.37975
G1 X109.339 Y76.655 E0.39287
G1 X109.915 Y76.378 E0.41413
G1 X110.569 Y76.076 E0.43809
G1 X110.9 Y75.93 E0.45012
G1 X111.271 Y75.777 E0.46347
G1 X111.753 Y75.586 E0.48071
G1 X111.985 Y75.497 E0.48897
G1 X112.652 Y75.25 E0.51263
G1 X112.939 Y75.148 E0.52276
G1 X113.11 Y75.09 E0.52877
G1 X113.416 Y74.991 E0.53946
G1 X113.895 Y74.844 E0.55613
G1 X114.112 Y74.78 E0.56365
G1 X114.815 Y74.58 E0.58796
G1 X115.128 Y74.496 E0.59874
G1 X115.302 Y74.452 E0.60471
G1 X115.601 Y74.381 E0.61493
G1 X116.089 Y74.272 E0.63156
G1 X116.315 Y74.224 E0.63925
G1 X117.01 Y74.084 E0.66283
G1 X117.352 Y74.02 E0.6744
G1 X117.759 Y73.954 E0.68812
G1 X118.261 Y73.881 E0.70499
G1 X118.513 Y73.848 E0.71344
G1 X119.243 Y73.759 E0.7379
G1 X119.598 Y73.721 E0.74978
G1 X119.8 Y73.703 E0.75652
G1 X120.072 Y73.683 E0.76559
G1 X120.775 Y73.639 E0.78902
G1 X121.456 Y73.608 E0.81169
G1 X121.807 Y73.598 E0.82337
G1 X122.234 Y73.596 E0.83757
G1 X122.742 Y73.602 E0.85447
G1 X122.973 Y73.607 E0.86216
G1 X123.735 Y73.632 E0.88751
G1 X124.085 Y73.649 E0.89917
G1 X124.499 Y73.679 E0.91297
G1 X125.01 Y73.725 E0.93004
G1 X125.251 Y73.75 E0.9381
G1 X125.955 Y73.829 E0.96166
G1 X126.238 Y73.864 E0.97114
G1 X126.44 Y73.892 E0.97793
G1 X126.768 Y73.943 E0.98897
G1 X127.47 Y74.064 E1.01266
G1 X128.188 Y74.201 E1.03697
G1 X128.571 Y74.28 E1.04998
G1 X128.954 Y74.37 E1.06306
G1 X129.65 Y74.547 E1.08695
G1 X130.361 Y74.741 E1.11146
G1 X130.64 Y74.821 E1.12112
G1 X130.849 Y74.884 E1.12838
G1 X131.192 Y74.994 E1.14036
G1 X131.666 Y75.154 E1.157
G1 X132.472 Y75.441 E1.18545
G1 X132.811 Y75.568 E1.19749
G1 X133.223 Y75.734 E1.21227
G1 X133.66 Y75.918 E1.22804
G1 X133.907 Y76.026 E1.237
G1 X134.58 Y76.329 E1.26155
G1 X134.822 Y76.441 E1.27042
G1 X134.995 Y76.524 E1.2768
G1 X135.287 Y76.67 E1.28766
G1 X135.705 Y76.886 E1.30331
G1 X135.914 Y76.997 E1.31118
G1 X136.557 Y77.347 E1.33553
G1 X136.841 Y77.506 E1.34636
G1 X136.985 Y77.59 E1.3519
G1 X137.238 Y77.743 E1.36173
G1 X137.659 Y78.004 E1.37821
G1 X137.851 Y78.126 E1.38578
G1 X138.472 Y78.529 E1.4104
G1 X138.8 Y78.75 E1.42355
G1 X139.108 Y78.968 E1.4361
G1 X139.466 Y79.229 E1.45084
G1 X139.683 Y79.391 E1.45985
G1 X140.302 Y79.866 E1.4858
G1 X140.634 Y80.13 E1.49991
G1 X140.886 Y80.34 E1.51082
G1 X141.284 Y80.681 E1.52825
G1 X141.479 Y80.852 E1.53687
G1 X142.011 Y81.33 E1.56066
G1 X142.352 Y81.649 E1.57619
G1 X142.522 Y81.816 E1.58412
G1 X142.909 Y82.204 E1.60234
G1 X143.089 Y82.389 E1.61093
G1 X143.601 Y82.927 E1.63563
G1 X143.822 Y83.166 E1.64646
G1 X144.116 Y83.499 E1.66123
G1 X144.446 Y83.886 E1.67815
G1 X144.6 Y84.07 E1.68613
G1 X145.038 Y84.607 E1.70918
G1 X145.326 Y84.974 E1.72469
G1 X145.529 Y85.245 E1.73596
G1 X145.993 Y85.889 E1.76236
G1 X146.344 Y86.394 E1.78281
G1 X146.54 Y86.687 E1.79454
G1 X146.79 Y87.078 E1.80997
G1 X147.061 Y87.519 E1.82719
G1 X147.191 Y87.735 E1.83557
G1 X147.541 Y88.335 E1.85868
G1 X147.765 Y88.735 E1.87392
G1 X147.928 Y89.041 E1.88546
G1 X148.14 Y89.454 E1.9009
G1 X148.252 Y89.679 E1.90926
G1 X148.585 Y90.366 E1.93465
G1 X148.739 Y90.696 E1.94676
G1 X148.887 Y91.035 E1.95906
G1 X149.085 Y91.507 E1.97609
G1 X149.183 Y91.749 E1.98477
G1 X149.442 Y92.41 E2.00838
G1 X149.552 Y92.703 E2.01879
G1 X149.621 Y92.895 E2.02558
G1 X149.719 Y93.181 E2.03563
G1 X149.88 Y93.671 E2.05279
G1 X149.958 Y93.917 E2.06137
G1 X150.153 Y94.561 E2.08375
G1 X150.237 Y94.855 E2.09392
G1 X150.303 Y95.097 E2.10226
G1 X150.378 Y95.386 E2.11219
G1 X150.537 Y96.046 E2.13477
G1 X150.684 Y96.707 E2.1573
G1 X150.782 Y97.194 E2.17382
G1 X150.835 Y97.485 E2.18366
G1 X150.915 Y97.967 E2.19991
G1 X150.954 Y98.223 E2.20852
G1 X151.055 Y98.935 E2.23244
G1 X151.098 Y99.276 E2.24387
G1 X151.147 Y99.745 E2.25955
G1 X151.189 Y100.228 E2.27568
G1 X151.208 Y100.481 E2.28412
G1 X151.252 Y101.171 E2.30711
G1 X151.268 Y101.508 E2.31834
G1 X151.276 Y101.75 E2.32639
G1 X151.282 Y102.039 E2.336
G1 X151.285 Y102.487 E2.3509
G1 X151.284 Y102.713 E2.35842
G1 X151.274 Y103.435 E2.38244
G1 X151.259 Y103.895 E2.39774
G1 X151.243 Y104.196 E2.40777
G1 X151.2 Y104.802 E2.42798
G1 X151.124 Y105.648 E2.45623
G1 X151.088 Y105.988 E2.4676
G1 X151.064 Y106.186 E2.47423
G1 X151.023 Y106.487 E2.48434
G1 X150.918 Y107.176 E2.50752
G1 X150.794 Y107.902 E2.53201
G1 X150.742 Y108.186 E2.54162
G1 X150.703 Y108.383 E2.5483
G1 X150.636 Y108.696 E2.55894
G1 X150.528 Y109.169 E2.57508
G1 X150.466 Y109.424 E2.58381
G1 X150.291 Y110.114 E2.60748
G1 X150.199 Y110.457 E2.6193
G1 X150.087 Y110.835 E2.63241
G1 X149.938 Y111.316 E2.64916
G1 X149.857 Y111.568 E2.65796
G1 X149.637 Y112.222 E2.68091
G1 X149.472 Y112.684 E2.69723
G1 X149.346 Y113.015 E2.70901
G1 X149.091 Y113.646 E2.73164
G1 X148.8 Y114.332 E2.75643
G1 X148.617 Y114.742 E2.77136
G1 X148.482 Y115.026 E2.78182
G1 X148.25 Y115.498 E2.79931
G1 X148.133 Y115.73 E2.80795
G1 X147.8 Y116.369 E2.83192
G1 X147.641 Y116.663 E2.84304
G1 X147.539 Y116.845 E2.84998
G1 X147.391 Y117.101 E2.85981
G1 X147.131 Y117.537 E2.8767
G1 X146.664 Y118.288 E2.90611
G1 X146.424 Y118.659 E2.92081
G1 X146.241 Y118.928 E2.93163
G1 X146.003 Y119.268 E2.94543
G1 X145.788 Y119.566 E2.95765
G1 X145.376 Y120.125 E2.98075
G1 X145.179 Y120.385 E2.9916
G1 X145.034 Y120.57 E2.99942
G1 X144.858 Y120.788 E3.00874
G1 X144.583 Y121.121 E3.0231
G1 X144.428 Y121.305 E3.0311
G1 X143.942 Y121.868 E3.05584
G1 X143.61 Y122.237 E3.07235
G1 X143.425 Y122.436 E3.08139
G1 X143.11 Y122.763 E3.09649
G1 X142.883 Y122.992 E3.10721
G1 X142.392 Y123.479 E3.13021
G1 X142.122 Y123.739 E3.14268
G1 X141.835 Y124.003 E3.15565
G1 X141.41 Y124.379 E3.17452
G1 X141.215 Y124.547 E3.18308
G1 X140.703 Y124.979 E3.20536
G1 X140.481 Y125.162 E3.21493
G1 X140.246 Y125.35 E3.22494
G1 X139.978 Y125.557 E3.23621
G1 X139.633 Y125.816 E3.25055
G1 X138.934 Y126.323 E3.27928
G1 X138.679 Y126.502 E3.28964
G1 X138.482 Y126.636 E3.29756
G1 X138.226 Y126.805 E3.30776
G1 X137.823 Y127.063 E3.32368
G1 X137.62 Y127.19 E3.33164
G1 X137.02 Y127.556 E3.35502
G1 X136.75 Y127.716 E3.36546
G1 X136.373 Y127.928 E3.37984
G1 X136.076 Y128.089 E3.39108
G1 X135.848 Y128.209 E3.39965
G1 X135.063 Y128.611 E3.42898
G1 X134.743 Y128.768 E3.44084
G1 X134.341 Y128.954 E3.45557
G1 X133.837 Y129.176 E3.47389
G1 X133.609 Y129.273 E3.48213
G1 X132.988 Y129.53 E3.50448
G1 X132.672 Y129.656 E3.5158
G1 X132.299 Y129.794 E3.52903
G1 X131.806 Y129.967 E3.5464
G1 X131.57 Y130.047 E3.55469
G1 X130.83 Y130.288 E3.58058
G1 X130.528 Y130.382 E3.5911
G1 X130.375 Y130.427 E3.5964
G1 X130.085 Y130.508 E3.60642
G1 X129.367 Y130.696 E3.6311
G1 X128.682 Y130.862 E3.65454
G1 X128.223 Y130.963 E3.67018
G1 X128.006 Y131.006 E3.67753
G1 X127.564 Y131.089 E3.69249
G1 X127.301 Y131.135 E3.70137
G1 X126.49 Y131.267 E3.7287
G1 X126.144 Y131.318 E3.74033
G1 X125.692 Y131.374 E3.75548
G1 X125.33 Y131.412 E3.76759
G1 X124.928 Y131.45 E3.78102
G1 X124.266 Y131.505 E3.80311
G1 X123.965 Y131.526 E3.81315
G1 X123.749 Y131.538 E3.82034
G1 X123.417 Y131.551 E3.83139
G1 X122.689 Y131.568 E3.85561
G1 X122.009 Y131.572 E3.87823
G1 X121.617 Y131.568 E3.89127
G1 X121.301 Y131.556 E3.90179
G1 X120.68 Y131.525 E3.92247
G1 X120.42 Y131.509 E3.93113
G1 X119.755 Y131.46 E3.95331
G1 X119.478 Y131.436 E3.96256
G1 X119.246 Y131.413 E3.97031
G1 X118.899 Y131.373 E3.98193
G1 X118.227 Y131.283 E4.00448
G1 X117.527 Y131.177 E4.02803
G1 X117.206 Y131.124 E4.03885
G1 X116.786 Y131.045 E4.05306
G1 X116.471 Y130.981 E4.06375
G1 X116.217 Y130.926 E4.0724
G1 X115.348 Y130.728 E4.10204
G1 X114.989 Y130.64 E4.11433
G1 X114.841 Y130.601 E4.11942
G1 X114.543 Y130.518 E4.12971
G1 X113.995 Y130.357 E4.14871
G1 X113.187 Y130.104 E4.17687
G1 X112.91 Y130.013 E4.18657
G1 X112.71 Y129.944 E4.19361
G1 X112.403 Y129.833 E4.20446
G1 X111.909 Y129.646 E4.22203
G1 X111.706 Y129.567 E4.22928
G1 X111.098 Y129.323 E4.25107
G1 X110.745 Y129.174 E4.26381
G1 X110.32 Y128.983 E4.27931
G1 X109.923 Y128.797 E4.29389
G1 X109.699 Y128.689 E4.30216
G1 X108.994 Y128.339 E4.32834
G1 X108.696 Y128.185 E4.3395
G1 X108.343 Y127.994 E4.35285
G1 X107.977 Y127.787 E4.36683
G1 X107.68 Y127.615 E4.37825
G1 X107.045 Y127.236 E4.40284
G1 X106.704 Y127.024 E4.4162
G1 X106.459 Y126.864 E4.42593
G1 X105.971 Y126.536 E4.44549
G1 X105.743 Y126.377 E4.45473
G1 X105.185 Y125.981 E4.47749
G1 X104.959 Y125.816 E4.4868
G1 X104.784 Y125.685 E4.49407
G1 X104.515 Y125.477 E4.50538
G1 X103.975 Y125.044 E4.5284
G1 X103.449 Y124.608 E4.55112
G1 X103.084 Y124.292 E4.56718
G1 X102.875 Y124.104 E4.57653
G1 X102.493 Y123.75 E4.59385
G1 X102.308 Y123.575 E4.60232
G1 X101.795 Y123.077 E4.6261
G1 X101.547 Y122.828 E4.63779
G1 X101.269 Y122.538 E4.65115
G1 X100.922 Y122.164 E4.66812
G1 X100.729 Y121.949 E4.67773
G1 X100.248 Y121.402 E4.70196
G1 X99.924 Y121.018 E4.71867
G1 X99.71 Y120.754 E4.72997
G1 X99.408 Y120.368 E4.74627
G1 X98.859 Y119.642 E4.77654
G1 X98.647 Y119.351 E4.78852
G1 X98.445 Y119.06 E4.8003
G1 X98.203 Y118.7 E4.81473
G1 X97.988 Y118.371 E4.8278
G1 X97.609 Y117.776 E4.85126
G1 X97.395 Y117.427 E4.86488
G1 X97.216 Y117.119 E4.87673
G1 X96.959 Y116.66 E4.89423
G1 X96.846 Y116.452 E4.9021
G1 X96.505 Y115.811 E4.92625
G1 X96.368 Y115.545 E4.9362
G1 X96.268 Y115.344 E4.94367
G1 X96.121 Y115.038 E4.95496
G1 X95.933 Y114.629 E4.96993
G1 X95.559 Y113.779 E5.00082
G1 X95.404 Y113.408 E5.01419
G1 X95.301 Y113.144 E5.02361
G1 X95.15 Y112.743 E5.03787
G1 X95.057 Y112.487 E5.04692
G1 X94.773 Y111.672 E5.07563
G1 X94.663 Y111.34 E5.08726
G1 X94.547 Y110.962 E5.10041
G1 X94.413 Y110.496 E5.11654
G1 X94.329 Y110.191 E5.12706
G1 X94.149 Y109.505 E5.15065
G1 X94.045 Y109.077 E5.1653
G1 X93.979 Y108.774 E5.17562
G1 X93.863 Y108.204 E5.19496
G1 X93.818 Y107.972 E5.20282
G1 X93.706 Y107.354 E5.22371
G1 X93.655 Y107.047 E5.23406
G1 X93.62 Y106.817 E5.2418
G1 X93.579 Y106.515 E5.25194
G1 X93.491 Y105.791 E5.27619
G1 X93.421 Y105.103 E5.2992
G1 X93.395 Y104.808 E5.30905
G1 X93.378 Y104.58 E5.31665
G1 X93.36 Y104.269 E5.32701
G1 X93.33 Y103.582 E5.34988
G1 X93.311 Y102.822 E5.37517
G1 X93.308 Y102.462 E5.38714
G1 X93.312 Y102.164 E5.39705
G1 X93.325 Y101.684 E5.41303
G1 X93.336 Y101.406 E5.42228
G1 X93.378 Y100.605 E5.44896
G1 X93.399 Y100.291 E5.45942
G1 X93.441 Y99.815 E5.47532
G1 X93.485 Y99.413 E5.48877
G1 X93.531 Y99.041 E5.50123
G1 X93.621 Y98.359 E5.52412
G1 X93.669 Y98.031 E5.53514
G1 X93.742 Y97.599 E5.54971
G1 X93.832 Y97.119 E5.56596
G1 X93.882 Y96.871 E5.57437
G1 X94.034 Y96.152 E5.59881
G1 X94.1 Y95.858 E5.60883
G1 X94.143 Y95.679 E5.61496
G1 X94.21 Y95.416 E5.62398
G1 X94.33 Y94.967 E5.63944
G1 X94.426 Y94.63 E5.6511
G1 X94.619 Y93.976 E5.67378
G1 X94.702 Y93.706 E5.68317
G1 X94.766 Y93.508 E5.69009
G1 X94.873 Y93.194 E5.70113
G1 X95.02 Y92.782 E5.71568
G1 X95.373 Y91.847 E5.74892
G1 X95.577 Y91.346 E5.76691
G1 X95.805 Y90.824 E5.78585
G1 X95.939 Y90.528 E5.79666
G1 X96.282 Y89.802 E5.82337
G1 X96.421 Y89.519 E5.83385
G1 X96.634 Y89.106 E5.84931
G1 X96.837 Y88.73 E5.86352
G1 X96.99 Y88.454 E5.87402
G1 X97.327 Y87.861 E5.8967
G1 X97.568 Y87.456 E5.91238
G1 X97.723 Y87.207 E5.92213
G1 X98.019 Y86.748 E5.9403
G1 X98.184 Y86.5 E5.95021
G1 X98.542 Y85.972 E5.97142
G1 X98.747 Y85.681 E5.98326
G1 X98.999 Y85.337 E5.99745
G1 X99.184 Y85.092 E6.00766
G1 X99.358 Y84.867 E6.01712
G1 X99.922 Y84.159 E6.04722
G1 X100.124 Y83.914 E6.05778
G0 F6000 X100.429 Y84.172
G1 F1200 X100.587 Y83.985 E6.06593
G1 X100.81 Y83.73 E6.07719
G1 X101.237 Y83.258 E6.09836
G1 X101.712 Y82.748 E6.12154
G1 X101.974 Y82.477 E6.13408
G1 X102.225 Y82.229 E6.14582
G1 X102.624 Y81.847 E6.16419
G1 X102.782 Y81.699 E6.17139
G1 X103.288 Y81.234 E6.19425
G1 X103.539 Y81.01 E6.20544
G1 X103.713 Y80.86 E6.21308
G1 X103.943 Y80.668 E6.22304
G1 X104.499 Y80.217 E6.24685
G1 X104.998 Y79.826 E6.26794
G1 X105.268 Y79.622 E6.27919
G1 X105.651 Y79.344 E6.29493
G1 X105.976 Y79.116 E6.30814
G1 X106.233 Y78.942 E6.31846
G1 X106.834 Y78.541 E6.34249
G1 X107.106 Y78.365 E6.35327
G1 X107.459 Y78.149 E6.36703
G1 X107.924 Y77.876 E6.38497
G1 X108.133 Y77.757 E6.39296
G1 X108.747 Y77.415 E6.41634
G1 X109.173 Y77.187 E6.43241
G1 X109.513 Y77.015 E6.44508
G1 X110.083 Y76.741 E6.46612
G1 X110.737 Y76.439 E6.49008
G1 X111.055 Y76.299 E6.50163
G1 X111.418 Y76.149 E6.5147
G1 X111.9 Y75.958 E6.53194
G1 X112.124 Y75.872 E6.53992
G1 X112.791 Y75.625 E6.56358
G1 X113.067 Y75.527 E6.57332
G1 X113.533 Y75.373 E6.58964
G1 X114.012 Y75.226 E6.60631
G1 X114.924 Y74.965 E6.63786
G1 X115.226 Y74.883 E6.64827
G1 X115.4 Y74.839 E6.65424
G1 X115.688 Y74.771 E6.66408
G1 X116.176 Y74.662 E6.68071
G1 X116.394 Y74.616 E6.68812
G1 X117.089 Y74.476 E6.7117
G1 X117.418 Y74.415 E6.72283
G1 X117.817 Y74.35 E6.73628
G1 X118.319 Y74.277 E6.75315
G1 X118.561 Y74.245 E6.76127
G1 X119.291 Y74.156 E6.78573
G1 X119.633 Y74.12 E6.79717
G1 X119.835 Y74.102 E6.80391
G1 X120.098 Y74.082 E6.81268
G1 X120.793 Y74.039 E6.83584
G1 X121.474 Y74.008 E6.85852
G1 X121.813 Y73.998 E6.8698
G1 X122.229 Y73.996 E6.88363
G1 X122.737 Y74.002 E6.90053
G1 X122.96 Y74.007 E6.90795
G1 X123.722 Y74.032 E6.93331
G1 X124.059 Y74.048 E6.94453
G1 X124.463 Y74.078 E6.958
G1 X124.974 Y74.124 E6.97507
G1 X125.206 Y74.147 E6.98282
G1 X125.91 Y74.226 E7.00638
G1 X126.183 Y74.26 E7.01553
G1 X126.385 Y74.288 E7.02232
G1 X126.701 Y74.337 E7.03295
G1 X127.179 Y74.418 E7.04908
G1 X127.395 Y74.457 E7.05638
G1 X128.113 Y74.594 E7.08069
G1 X128.487 Y74.671 E7.09339
G1 X128.857 Y74.757 E7.10602
G1 X129.345 Y74.88 E7.12276
G1 X130.255 Y75.127 E7.15412
G1 X130.524 Y75.204 E7.16343
G1 X130.733 Y75.267 E7.17069
G1 X131.064 Y75.373 E7.18225
G1 X131.723 Y75.597 E7.2054
G1 X132.337 Y75.817 E7.22709
G1 X132.663 Y75.94 E7.23868
G1 X133.067 Y76.103 E7.25317
G1 X133.743 Y76.39 E7.2776
G1 X134.416 Y76.693 E7.30215
G1 X134.822 Y76.885 E7.31708
G1 X135.103 Y77.025 E7.32753
G1 X135.521 Y77.241 E7.34318
G1 X135.723 Y77.348 E7.35078
G1 X136.366 Y77.698 E7.37513
G1 X136.639 Y77.852 E7.38555
G1 X136.783 Y77.936 E7.3911
G1 X137.027 Y78.083 E7.40057
G1 X137.633 Y78.461 E7.42433
G1 X138.254 Y78.864 E7.44895
G1 X138.571 Y79.078 E7.46167
G1 X138.873 Y79.292 E7.47398
G1 X139.231 Y79.553 E7.48872
G1 X139.439 Y79.709 E7.49736
G1 X140.058 Y80.184 E7.52332
G1 X140.383 Y80.442 E7.53712
G1 X140.626 Y80.643 E7.54761
G1 X141.024 Y80.984 E7.56504
G1 X141.211 Y81.149 E7.57333
G1 X141.743 Y81.627 E7.59712
G1 X142 Y81.865 E7.60877
G1 X142.239 Y82.098 E7.61987
G1 X142.626 Y82.486 E7.6381
G1 X142.8 Y82.665 E7.6464
G1 X143.312 Y83.203 E7.6711
G1 X143.524 Y83.433 E7.68151
G1 X143.812 Y83.758 E7.69595
G1 X144.142 Y84.145 E7.71287
G1 X144.29 Y84.323 E7.72057
G1 X144.728 Y84.86 E7.74361
G1 X145.009 Y85.218 E7.75875
G1 X145.205 Y85.48 E7.76963
G1 X145.664 Y86.117 E7.79575
G1 X146.015 Y86.622 E7.8162
G1 X146.205 Y86.905 E7.82754
G1 X146.449 Y87.287 E7.84262
G1 X146.72 Y87.728 E7.85983
