;FLAVOR:Marlin
;TIME:3953
;Filament used: 3.61795m
;Layer height: 0.3
;MINX:83.593
;MINY:59.708
;MINZ:0.2
;MAXX:135.764
;MAXY:111.88
;MAXZ:69.8
;Generated with Creality Slicer 4.8.2-191
M140 S65
M105
M190 S65
M104 S205
M105
M109 S205
M82 ;absolute extrusion mode

G28 ;Home

G92 E0 ;Reset Extruder
G1 Z2.0 F3000 ;Move Z Axis up
G1 X10.1 Y20 Z0.28 F5000.0 ;Move to start position
G1 X10.1 Y200.0 Z0.28 F1500.0 E15 ;Draw the first line
G1 X10.4 Y200.0 Z0.28 F5000.0 ;Move to side a little
G1 X10.4 Y20 Z0.28 F1500.0 E30 ;Draw the second line
G92 E0 ;Reset Extruder
G1 Z2.0 F3000 ;Move Z Axis up

G92 E0
G92 E0
G1 F2400 E-0.8
;LAYER_COUNT:233
;LAYER:0
M107
G0 F6000 X88.964 Y69.94 Z0.2
;TYPE:SKIRT
G1 F2400 E0
G1 F1200 X89.201 Y69.64 E0.01272
G1 X89.784 Y68.925 E0.0434
G1 X90.143 Y68.506 E0.06175
G1 X90.458 Y68.157 E0.07739
G1 X90.714 Y67.883 E0.08986
G1 X91.144 Y67.438 E0.11044
G1 X91.335 Y67.245 E0.11947
G1 X91.671 Y66.919 E0.13504
G1 X92.076 Y66.54 E0.15349
G1 X92.348 Y66.294 E0.16569
G1 X92.644 Y66.035 E0.17877
G1 X92.859 Y65.852 E0.18816
G1 X93.113 Y65.641 E0.19915
G1 X93.337 Y65.46 E0.20872
G1 X93.831 Y65.071 E0.22964
G1 X94.144 Y64.833 E0.24272
G1 X94.481 Y64.59 E0.25653
G1 X94.919 Y64.284 E0.27431
G1 X95.171 Y64.113 E0.28443
G1 X95.642 Y63.803 E0.30319
G1 X95.994 Y63.58 E0.31705
G1 X96.301 Y63.396 E0.32895
G1 X96.822 Y63.096 E0.34895
G1 X97.047 Y62.97 E0.35753
G1 X97.436 Y62.758 E0.37226
G1 X97.981 Y62.481 E0.39259
G1 X98.739 Y62.121 E0.4205
G1 X99.137 Y61.941 E0.43503
G1 X100.043 Y61.554 E0.4678
G1 X100.9 Y61.23 E0.49827
G1 X101.994 Y60.867 E0.53661
G1 X102.377 Y60.747 E0.54996
G1 X102.973 Y60.586 E0.57049
G1 X104.27 Y60.275 E0.61485
G1 X105.137 Y60.104 E0.64425
G1 X106.097 Y59.954 E0.67656
G1 X106.535 Y59.894 E0.69127
G1 X106.834 Y59.861 E0.70127
G1 X107.204 Y59.825 E0.71364
G1 X107.496 Y59.8 E0.72338
G1 X108.334 Y59.741 E0.75133
G1 X108.925 Y59.715 E0.771
G1 X109.349 Y59.708 E0.78511
G1 X109.704 Y59.708 E0.79691
G1 X110.529 Y59.721 E0.82436
G1 X110.962 Y59.736 E0.83877
G1 X111.236 Y59.752 E0.8479
G1 X111.707 Y59.785 E0.8636
G1 X111.995 Y59.809 E0.87321
G1 X112.513 Y59.859 E0.89052
G1 X113.127 Y59.936 E0.9111
G1 X114.038 Y60.076 E0.94176
G1 X114.382 Y60.134 E0.95336
G1 X114.747 Y60.202 E0.96571
G1 X115.336 Y60.329 E0.98575
G1 X116.362 Y60.579 E1.02087
G1 X116.919 Y60.73 E1.04007
G1 X117.282 Y60.843 E1.05271
G1 X118.383 Y61.206 E1.09127
G1 X118.688 Y61.312 E1.10201
G1 X118.848 Y61.37 E1.10767
G1 X119.432 Y61.6 E1.12855
G1 X120.419 Y62.023 E1.16426
G1 X120.773 Y62.182 E1.17717
G1 X121.355 Y62.47 E1.19877
G1 X122.388 Y63.019 E1.23768
G1 X122.766 Y63.229 E1.25206
G1 X123.164 Y63.461 E1.26738
G1 X123.635 Y63.752 E1.28579
G1 X124.13 Y64.075 E1.30545
G1 X124.408 Y64.262 E1.3166
G1 X124.926 Y64.623 E1.3376
G1 X125.413 Y64.983 E1.35774
G1 X125.913 Y65.374 E1.37885
G1 X126.181 Y65.59 E1.3903
G1 X126.71 Y66.031 E1.41321
G1 X127.155 Y66.423 E1.43293
G1 X127.595 Y66.832 E1.45291
G1 X127.822 Y67.049 E1.46336
G1 X128.266 Y67.486 E1.48408
G1 X128.685 Y67.922 E1.50419
G1 X129.131 Y68.412 E1.52623
G1 X129.361 Y68.673 E1.5378
G1 X129.805 Y69.193 E1.56054
G1 X130.192 Y69.672 E1.58102
G1 X130.543 Y70.133 E1.60029
G1 X130.711 Y70.36 E1.60968
G1 X131.079 Y70.87 E1.6306
G1 X131.43 Y71.386 E1.65136
G1 X131.78 Y71.934 E1.67299
G1 X131.955 Y72.218 E1.68408
G1 X132.106 Y72.471 E1.69388
G1 X132.289 Y72.79 E1.70611
G1 X132.759 Y73.641 E1.73845
G1 X133.015 Y74.134 E1.75692
G1 X133.199 Y74.511 E1.77088
G1 X133.358 Y74.85 E1.78333
G1 X133.676 Y75.562 E1.80927
G1 X133.893 Y76.084 E1.82807
G1 X134.085 Y76.581 E1.84579
G1 X134.201 Y76.896 E1.85695
G1 X134.393 Y77.442 E1.8762
G1 X134.505 Y77.779 E1.88801
G1 X134.643 Y78.225 E1.90354
G1 X134.811 Y78.802 E1.92353
G1 X134.902 Y79.131 E1.93488
G1 X134.976 Y79.418 E1.94474
G1 X135.041 Y79.685 E1.95388
G1 X135.134 Y80.087 E1.96761
G1 X135.196 Y80.374 E1.97737
G1 X135.304 Y80.905 E1.99539
G1 X135.364 Y81.219 E2.00603
G1 X135.408 Y81.473 E2.0146
G1 X135.46 Y81.804 E2.02574
G1 X135.533 Y82.318 E2.04301
G1 X135.572 Y82.629 E2.05344
G1 X135.635 Y83.186 E2.07208
G1 X135.686 Y83.772 E2.09164
G1 X135.734 Y84.583 E2.11867
G1 X135.748 Y84.901 E2.12925
G1 X135.762 Y85.365 E2.14469
G1 X135.764 Y85.968 E2.16475
G1 X135.744 Y86.779 E2.19173
G1 X135.731 Y87.107 E2.20265
G1 X135.707 Y87.547 E2.21731
G1 X135.658 Y88.146 E2.23729
G1 X135.564 Y89.004 E2.266
G1 X135.524 Y89.326 E2.27679
G1 X135.453 Y89.835 E2.29389
G1 X135.371 Y90.332 E2.31064
G1 X135.31 Y90.659 E2.32171
G1 X135.201 Y91.178 E2.33934
G1 X134.903 Y92.436 E2.38234
G1 X134.656 Y93.315 E2.41271
G1 X134.27 Y94.497 E2.45407
G1 X134.026 Y95.167 E2.47778
G1 X133.91 Y95.452 E2.48802
G1 X133.523 Y96.372 E2.52121
G1 X133.363 Y96.736 E2.53444
G1 X133.234 Y97.01 E2.54451
G1 X133.109 Y97.266 E2.55399
G1 X132.971 Y97.538 E2.56413
G1 X132.584 Y98.278 E2.59191
G1 X132.394 Y98.626 E2.60509
G1 X132.224 Y98.919 E2.61636
G1 X131.968 Y99.347 E2.63295
G1 X131.838 Y99.56 E2.64125
G1 X131.602 Y99.935 E2.65598
G1 X131.409 Y100.232 E2.66777
G1 X131.217 Y100.51 E2.679
G1 X130.651 Y101.305 E2.71146
G1 X130.428 Y101.607 E2.72395
G1 X130.298 Y101.777 E2.73107
G1 X129.947 Y102.213 E2.74968
G1 X129.257 Y103.026 E2.78515
G1 X129.027 Y103.287 E2.79672
G1 X128.714 Y103.633 E2.81224
G1 X128.276 Y104.091 E2.83332
G1 X127.681 Y104.675 E2.86104
G1 X127.531 Y104.818 E2.86794
G1 X127.304 Y105.029 E2.87825
G1 X127.193 Y105.129 E2.88321
G1 X126.915 Y105.371 E2.89547
G1 X126.067 Y106.085 E2.93234
G1 X125.82 Y106.287 E2.94296
G1 X125.665 Y106.41 E2.94954
G1 X125.16 Y106.787 E2.9705
G1 X124.342 Y107.363 E3.00377
G1 X124.047 Y107.564 E3.01565
G1 X123.648 Y107.826 E3.03152
G1 X123.141 Y108.14 E3.05136
G1 X122.596 Y108.457 E3.07233
G1 X122.305 Y108.62 E3.08342
G1 X121.718 Y108.938 E3.10563
G1 X121.142 Y109.228 E3.12707
G1 X120.561 Y109.5 E3.14841
G1 X120.276 Y109.629 E3.15882
G1 X119.64 Y109.905 E3.18188
G1 X119.068 Y110.134 E3.20237
G1 X118.561 Y110.321 E3.22034
G1 X118.302 Y110.413 E3.22948
G1 X117.677 Y110.626 E3.25145
G1 X117.046 Y110.82 E3.2734
G1 X116.388 Y111.001 E3.2961
G1 X116.084 Y111.08 E3.30655
G1 X115.438 Y111.238 E3.32867
G1 X114.836 Y111.368 E3.34915
G1 X114.309 Y111.466 E3.36698
G1 X114.035 Y111.513 E3.37623
G1 X113.372 Y111.619 E3.39856
G1 X112.733 Y111.702 E3.41999
G1 X112.085 Y111.767 E3.44165
G1 X111.793 Y111.792 E3.4514
G1 X111.14 Y111.84 E3.47317
G1 X110.824 Y111.859 E3.4837
G1 X110.622 Y111.868 E3.49043
G1 X110.196 Y111.879 E3.5046
G1 X109.654 Y111.88 E3.52263
G1 X109.248 Y111.875 E3.53613
G1 X108.855 Y111.863 E3.54921
G1 X107.919 Y111.818 E3.58038
G1 X107.386 Y111.78 E3.59815
G1 X107.097 Y111.752 E3.60781
G1 X106.692 Y111.705 E3.62137
G1 X105.718 Y111.574 E3.65406
G1 X105.192 Y111.49 E3.67177
G1 X104.638 Y111.388 E3.69051
G1 X104.327 Y111.326 E3.70106
G1 X103.986 Y111.253 E3.71266
G1 X103.608 Y111.165 E3.72556
G1 X103.226 Y111.069 E3.73866
G1 X102.989 Y111.007 E3.74681
G1 X102.571 Y110.892 E3.76123
G1 X102.254 Y110.8 E3.77221
G1 X101.721 Y110.636 E3.79076
G1 X101.379 Y110.524 E3.80273
G1 X100.906 Y110.359 E3.81939
G1 X100.403 Y110.174 E3.83721
G1 X100.103 Y110.059 E3.8479
G1 X99.794 Y109.935 E3.85897
G1 X99.493 Y109.808 E3.86984
G1 X99.101 Y109.637 E3.88407
G1 X98.844 Y109.522 E3.89343
G1 X98.298 Y109.267 E3.91347
G1 X97.75 Y108.992 E3.93387
G1 X97.072 Y108.628 E3.95946
G1 X96.755 Y108.451 E3.97154
G1 X96.443 Y108.27 E3.98353
G1 X96.003 Y108.001 E4.00069
G1 X95.111 Y107.426 E4.03598
G1 X94.794 Y107.213 E4.04869
G1 X94.522 Y107.024 E4.0597
G1 X94.05 Y106.677 E4.07919
G1 X93.391 Y106.165 E4.10694
G1 X93.109 Y105.939 E4.11896
G1 X92.807 Y105.688 E4.13202
G1 X92.387 Y105.32 E4.1506
G1 X91.705 Y104.692 E4.18143
G1 X91.433 Y104.433 E4.19392
G1 X91.218 Y104.221 E4.20397
G1 X90.847 Y103.836 E4.22175
G1 X90.282 Y103.222 E4.2495
G1 X89.976 Y102.876 E4.26486
G1 X89.347 Y102.132 E4.29727
G1 X88.79 Y101.416 E4.32744
G1 X88.092 Y100.437 E4.36743
G1 X87.723 Y99.885 E4.38951
G1 X87.586 Y99.666 E4.39811
G1 X87.444 Y99.433 E4.40718
G1 X86.982 Y98.652 E4.43736
G1 X86.693 Y98.13 E4.45721
G1 X86.478 Y97.717 E4.47269
G1 X86.361 Y97.485 E4.48134
G1 X86.091 Y96.935 E4.50171
G1 X85.828 Y96.358 E4.52281
G1 X85.51 Y95.603 E4.55005
G1 X85.393 Y95.316 E4.56036
G1 X85.252 Y94.953 E4.57331
G1 X85.125 Y94.609 E4.58551
G1 X84.999 Y94.241 E4.59845
G1 X84.783 Y93.573 E4.6218
G1 X84.698 Y93.301 E4.63128
G1 X84.547 Y92.789 E4.64903
G1 X84.433 Y92.371 E4.66344
G1 X84.359 Y92.072 E4.67369
G1 X84.204 Y91.405 E4.69646
G1 X84.146 Y91.139 E4.70552
G1 X84.069 Y90.766 E4.71818
G1 X83.959 Y90.145 E4.73916
G1 X83.804 Y89.093 E4.77453
G1 X83.744 Y88.605 E4.79088
G1 X83.701 Y88.183 E4.80499
G1 X83.669 Y87.808 E4.81751
G1 X83.641 Y87.393 E4.83134
G1 X83.619 Y86.962 E4.8457
G1 X83.593 Y86.093 E4.87461
G1 X83.593 Y85.477 E4.8951
G1 X83.61 Y84.865 E4.91546
G1 X83.623 Y84.551 E4.92591
G1 X83.66 Y83.895 E4.94777
G1 X83.713 Y83.276 E4.96843
G1 X83.783 Y82.658 E4.98912
G1 X83.823 Y82.343 E4.99968
G1 X83.918 Y81.677 E5.02205
G1 X84.022 Y81.069 E5.04257
G1 X84.144 Y80.46 E5.06323
G1 X84.213 Y80.144 E5.07399
G1 X84.357 Y79.521 E5.09525
G1 X84.505 Y78.948 E5.11494
G1 X84.675 Y78.359 E5.13533
G1 X84.768 Y78.056 E5.14587
G1 X84.969 Y77.428 E5.1678
G1 X85.176 Y76.838 E5.1886
G1 X85.401 Y76.252 E5.20947
G1 X85.521 Y75.953 E5.22019
G1 X85.768 Y75.362 E5.24149
G1 X86.012 Y74.819 E5.26129
G1 X86.297 Y74.229 E5.28309
G1 X86.443 Y73.938 E5.29392
G1 X86.74 Y73.367 E5.31532
G1 X87.05 Y72.811 E5.3365
G1 X87.357 Y72.296 E5.35644
G1 X87.507 Y72.052 E5.36596
G1 X87.876 Y71.468 E5.38894
G1 X88.042 Y71.213 E5.39906
G1 X88.14 Y71.067 E5.40491
G1 X88.392 Y70.707 E5.41952
G1 X88.712 Y70.272 E5.43748
G1 X88.964 Y69.94 E5.45135
G0 F6000 X89.283 Y70.182
G1 F1200 X89.511 Y69.892 E5.46362
G1 X90.094 Y69.177 E5.4943
G1 X90.44 Y68.774 E5.51197
G1 X90.755 Y68.425 E5.5276
G1 X91.001 Y68.161 E5.53961
G1 X91.431 Y67.716 E5.56019
G1 X91.749 Y67.399 E5.57512
G1 X91.944 Y67.211 E5.58413
G1 X92.349 Y66.832 E5.60258
G1 X92.612 Y66.595 E5.61436
G1 X92.908 Y66.336 E5.62744
G1 X93.115 Y66.159 E5.6365
G1 X93.369 Y65.948 E5.64748
G1 X93.584 Y65.774 E5.65668
G1 X94.078 Y65.385 E5.67759
G1 X94.38 Y65.156 E5.6902
G1 X94.71 Y64.918 E5.70373
G1 X95.148 Y64.612 E5.7215
G1 X95.391 Y64.447 E5.73127
G1 X95.862 Y64.137 E5.75002
G1 X96.204 Y63.92 E5.7635
G1 X96.501 Y63.743 E5.77499
G1 X97.022 Y63.443 E5.79499
G1 X97.239 Y63.321 E5.80327
G1 X97.628 Y63.109 E5.81801
G1 X98.153 Y62.842 E5.8376
G1 X98.911 Y62.482 E5.86551
G1 X99.294 Y62.309 E5.87948
G1 X100.2 Y61.922 E5.91225
G1 X101.026 Y61.609 E5.94163
G1 X102.12 Y61.246 E5.97997
G1 X102.492 Y61.13 E5.99293
G1 X103.066 Y60.975 E6.0127
G1 X104.363 Y60.664 E6.05706
G1 X105.199 Y60.499 E6.08541
G1 X106.159 Y60.349 E6.11772
G1 X106.584 Y60.291 E6.13199
G1 X106.872 Y60.259 E6.14163
G1 X107.242 Y60.223 E6.15399
G1 X107.525 Y60.199 E6.16344
G1 X108.363 Y60.14 E6.19138
G1 X108.932 Y60.115 E6.21032
G1 X109.356 Y60.108 E6.22443
G1 X109.698 Y60.108 E6.2358
G1 X110.523 Y60.121 E6.26324
G1 X110.944 Y60.136 E6.27726
G1 X111.208 Y60.151 E6.28605
G1 X111.679 Y60.184 E6.30176
G1 X111.956 Y60.207 E6.311
G1 X112.474 Y60.257 E6.32831
G1 X113.066 Y60.331 E6.34815
G1 X113.977 Y60.471 E6.37881
G1 X114.308 Y60.527 E6.38997
G1 X114.673 Y60.595 E6.40232
G1 X115.241 Y60.717 E6.42164
G1 X116.267 Y60.967 E6.45677
G1 X116.804 Y61.113 E6.47528
G1 X117.157 Y61.223 E6.48757
G1 X118.258 Y61.586 E6.52613
G1 X118.711 Y61.746 E6.54211
G1 X119.275 Y61.968 E6.56227
G1 X120.262 Y62.391 E6.59799
G1 X120.606 Y62.545 E6.61052
G1 X121.168 Y62.823 E6.63138
G1 X122.201 Y63.372 E6.67029
G1 X122.564 Y63.574 E6.6841
G1 X122.962 Y63.806 E6.69942
G1 X123.417 Y64.087 E6.71721
G1 X123.912 Y64.41 E6.73687
G1 X124.18 Y64.591 E6.74763
G1 X124.698 Y64.952 E6.76863
G1 X125.167 Y65.298 E6.78801
G1 X125.667 Y65.689 E6.80912
G1 X125.924 Y65.897 E6.82012
G1 X126.453 Y66.338 E6.84303
G1 X126.883 Y66.716 E6.86207
G1 X127.323 Y67.125 E6.88205
G1 X127.542 Y67.334 E6.89212
G1 X127.986 Y67.771 E6.91284
G1 X128.389 Y68.191 E6.9322
G1 X128.835 Y68.681 E6.95423
G1 X129.057 Y68.933 E6.9654
G1 X129.501 Y69.453 E6.98815
G1 X129.874 Y69.915 E7.0079
G1 X130.225 Y70.376 E7.02717
G1 X130.387 Y70.594 E7.0362
G1 X130.755 Y71.104 E7.05712
G1 X131.092 Y71.601 E7.07709
G1 X131.442 Y72.149 E7.09872
G1 X131.611 Y72.423 E7.10942
G1 X131.762 Y72.676 E7.11922
G1 X131.939 Y72.983 E7.13101
G1 X132.409 Y73.834 E7.16335
G1 X132.656 Y74.31 E7.18118
G1 X132.84 Y74.687 E7.19513
G1 X132.993 Y75.013 E7.20711
G1 X133.311 Y75.725 E7.23305
G1 X133.52 Y76.228 E7.25116
G1 X133.712 Y76.725 E7.26889
G1 X133.824 Y77.029 E7.27966
G1 X134.016 Y77.575 E7.29891
G1 X134.124 Y77.899 E7.31027
G1 X134.259 Y78.337 E7.32551
G1 X134.427 Y78.914 E7.3455
G1 X134.514 Y79.23 E7.3564
G1 X134.588 Y79.517 E7.36626
G1 X134.651 Y79.775 E7.37509
G1 X134.744 Y80.177 E7.38882
G1 X134.804 Y80.453 E7.39821
G1 X134.912 Y80.984 E7.41624
G1 X134.969 Y81.288 E7.42652
G1 X135.013 Y81.542 E7.4351
G1 X135.064 Y81.861 E7.44584
G1 X135.137 Y82.375 E7.46311
G1 X135.175 Y82.674 E7.47313
G1 X135.238 Y83.231 E7.49178
G1 X135.286 Y83.796 E7.51064
G1 X135.334 Y84.607 E7.53766
G1 X135.348 Y84.913 E7.54785
G1 X135.362 Y85.377 E7.56329
G1 X135.364 Y85.958 E7.58261
G1 X135.344 Y86.769 E7.60959
G1 X135.331 Y87.085 E7.62011
G1 X135.307 Y87.525 E7.63477
G1 X135.26 Y88.102 E7.65402
G1 X135.166 Y88.96 E7.68273
G1 X135.127 Y89.27 E7.69312
G1 X135.056 Y89.779 E7.71022
G1 X134.978 Y90.259 E7.72639
G1 X134.917 Y90.586 E7.73745
G1 X134.812 Y91.085 E7.75441
G1 X134.514 Y92.343 E7.79741
G1 X134.275 Y93.191 E7.82672
G1 X133.889 Y94.373 E7.86807
G1 X133.655 Y95.019 E7.89093
G1 X133.542 Y95.297 E7.90091
G1 X133.155 Y96.217 E7.9341
G1 X132.999 Y96.57 E7.94694
G1 X132.874 Y96.835 E7.95668
G1 X132.749 Y97.091 E7.96616
G1 X132.617 Y97.352 E7.97589
G1 X132.23 Y98.092 E8.00366
G1 X132.046 Y98.428 E8.0164
G1 X131.881 Y98.714 E8.02739
G1 X131.625 Y99.142 E8.04397
G1 X131.499 Y99.347 E8.05198
G1 X131.263 Y99.722 E8.06671
G1 X131.076 Y100.01 E8.07813
G1 X130.891 Y100.278 E8.08897
G1 X130.325 Y101.073 E8.12142
G1 X130.11 Y101.364 E8.13346
G1 X129.98 Y101.534 E8.14058
G1 X129.642 Y101.954 E8.15851
G1 X128.952 Y102.767 E8.19397
G1 X128.731 Y103.019 E8.20512
G1 X128.418 Y103.365 E8.22064
G1 X127.995 Y103.806 E8.24096
G1 X127.405 Y104.385 E8.26846
G1 X127.255 Y104.528 E8.27535
G1 X126.925 Y104.831 E8.29025
G1 X126.657 Y105.065 E8.30209
G1 X125.809 Y105.779 E8.33896
G1 X125.571 Y105.973 E8.34917
G1 X125.416 Y106.096 E8.35575
G1 X124.93 Y106.46 E8.37595
G1 X124.112 Y107.036 E8.40922
G1 X123.827 Y107.23 E8.42069
G1 X123.428 Y107.492 E8.43656
G1 X122.94 Y107.794 E8.45565
G1 X122.395 Y108.111 E8.47662
G1 X122.114 Y108.268 E8.48733
G1 X121.527 Y108.586 E8.50953
G1 X120.972 Y108.866 E8.53021
G1 X120.391 Y109.138 E8.55154
G1 X120.117 Y109.262 E8.56155
G1 X119.481 Y109.538 E8.58461
G1 X118.929 Y109.759 E8.60438
G1 X118.422 Y109.946 E8.62236
G1 X118.173 Y110.034 E8.63114
G1 X117.548 Y110.247 E8.6531
G1 X116.94 Y110.434 E8.67426
G1 X116.282 Y110.615 E8.69696
G1 X115.989 Y110.692 E8.70703
G1 X115.343 Y110.85 E8.72915
G1 X114.763 Y110.974 E8.74888
G1 X114.236 Y111.072 E8.76671
G1 X113.971 Y111.118 E8.77565
G1 X113.308 Y111.224 E8.79798
G1 X112.693 Y111.304 E8.81861
G1 X112.045 Y111.369 E8.84027
G1 X111.764 Y111.393 E8.84965
G1 X111.111 Y111.441 E8.87143
G1 X110.806 Y111.459 E8.88159
G1 X110.604 Y111.468 E8.88832
G1 X110.194 Y111.479 E8.90196
G1 X109.658 Y111.48 E8.91979
G1 X109.252 Y111.475 E8.93329
G1 X108.874 Y111.464 E8.94587
G1 X107.938 Y111.419 E8.97704
G1 X107.425 Y111.382 E8.99414
G1 X107.136 Y111.354 E9.0038
G1 X106.745 Y111.308 E9.01689
G1 X105.771 Y111.177 E9.04958
G1 X105.265 Y111.097 E9.06662
G1 X104.711 Y110.995 E9.08536
G1 X104.411 Y110.935 E9.09553
G1 X104.07 Y110.862 E9.10713
G1 X103.705 Y110.777 E9.1196
G1 X103.323 Y110.681 E9.1327
G1 X103.095 Y110.621 E9.14054
G1 X102.677 Y110.506 E9.15496
G1 X102.372 Y110.417 E9.16552
G1 X101.839 Y110.253 E9.18407
G1 X101.509 Y110.146 E9.19561
G1 X101.256 Y110.059 E9.20451
G1 X100.541 Y109.798 E9.22982
G1 X100.252 Y109.687 E9.24012
G1 X99.943 Y109.563 E9.2512
G1 X99.653 Y109.442 E9.26165
G1 X99.261 Y109.271 E9.27587
G1 X99.014 Y109.159 E9.28489
