;FLAVOR:Marlin
;TIME:696
;Filament used: 0.634358m
;Layer height: 0.3
;MINX:79.921
;MINY:81.345
;MINZ:0.2
;MAXX:133.371
;MAXY:125.33
;MAXZ:5
;Generated with Creality Slicer 4.8.2-191
M140 S65
M105
M190 S65
M104 S205
M105
M109 S205
M82 ;absolute extrusion mode

G28 ;Home

G92 E0 ;Reset Extruder
G1 Z2.0 F3000 ;Move Z Axis up
G1 X10.1 Y20 Z0.28 F5000.0 ;Move to start position
G1 X10.1 Y200.0 Z0.28 F1500.0 E15 ;Draw the first line
G1 X10.4 Y200.0 Z0.28 F5000.0 ;Move to side a little
G1 X10.4 Y20 Z0.28 F1500.0 E30 ;Draw the second line
G92 E0 ;Reset Extruder
G1 Z2.0 F3000 ;Move Z Axis up

G92 E0
G92 E0
G1 F2400 E-0.8
;LAYER_COUNT:17
;LAYER:0
M107
G0 F6000 X87.44 Y85.051 Z0.2
;TYPE:SKIRT
G1 F2400 E0
G1 F1200 X88.092 Y84.376 E0.03121
G1 X88.798 Y83.759 E0.0624
G1 X89.555 Y83.204 E0.09362
G1 X90.355 Y82.716 E0.12479
G1 X91.195 Y82.298 E0.15599
G1 X92.067 Y81.953 E0.18718
G1 X92.965 Y81.684 E0.21836
G1 X93.883 Y81.492 E0.24956
G1 X94.814 Y81.379 E0.28075
G1 X95.752 Y81.345 E0.31197
G1 X96.582 Y81.383 E0.3396
G1 X96.933 Y81.413 E0.35132
G1 X99.204 Y81.636 E0.42722
G1 X101.681 Y81.809 E0.5098
G1 X104.238 Y81.915 E0.59492
G1 X106.726 Y81.948 E0.67768
G1 X109.249 Y81.909 E0.7616
G1 X111.779 Y81.799 E0.84583
G1 X114.304 Y81.618 E0.93003
G1 X116.546 Y81.398 E1.00496
G1 X117.482 Y81.346 E1.03614
G1 X118.419 Y81.374 E1.06732
G1 X119.351 Y81.482 E1.09852
G1 X120.27 Y81.669 E1.12971
G1 X121.17 Y81.933 E1.16091
G1 X122.044 Y82.273 E1.1921
G1 X122.886 Y82.686 E1.22329
G1 X123.69 Y83.17 E1.25451
G1 X124.449 Y83.72 E1.28568
G1 X125.159 Y84.333 E1.31688
G1 X125.814 Y85.004 E1.34807
G1 X126.41 Y85.729 E1.37928
G1 X126.941 Y86.501 E1.41045
G1 X127.405 Y87.316 E1.44164
G1 X127.798 Y88.168 E1.47285
G1 X128.117 Y89.05 E1.50404
G1 X128.359 Y89.956 E1.53523
G1 X128.538 Y90.991 E1.57017
G1 X128.621 Y91.665 E1.59275
G1 X128.79 Y93.211 E1.64448
G1 X129.136 Y95.713 E1.72849
G1 X129.553 Y98.209 E1.81266
G1 X130.039 Y100.686 E1.89661
G1 X130.579 Y103.074 E1.97804
G1 X131.214 Y105.561 E2.06342
G1 X131.908 Y107.987 E2.14734
G1 X132.444 Y109.679 E2.20637
G1 X132.475 Y109.794 E2.21033
G1 X132.848 Y110.954 E2.25086
G1 X133.097 Y111.858 E2.28205
G1 X133.268 Y112.78 E2.31324
G1 X133.359 Y113.714 E2.34445
G1 X133.371 Y114.652 E2.37565
G1 X133.303 Y115.587 E2.40683
G1 X133.155 Y116.513 E2.43802
G1 X132.929 Y117.423 E2.46921
G1 X132.626 Y118.311 E2.50041
G1 X132.249 Y119.17 E2.53161
G1 X131.8 Y119.993 E2.5628
G1 X131.283 Y120.775 E2.59398
G1 X130.7 Y121.511 E2.62521
G1 X130.058 Y122.193 E2.65636
G1 X129.359 Y122.819 E2.68757
G1 X128.61 Y123.383 E2.71875
G1 X127.815 Y123.881 E2.74995
G1 X126.981 Y124.31 E2.78115
G1 X126.113 Y124.666 E2.81235
G1 X125.218 Y124.946 E2.84354
G1 X124.303 Y125.15 E2.87472
G1 X123.373 Y125.275 E2.90593
G1 X122.537 Y125.319 E2.93378
G1 X121.692 Y125.33 E2.96188
G1 X91.456 Y125.329 E3.96754
G1 X90.761 Y125.319 E3.99065
G1 X89.824 Y125.265 E4.02187
G1 X88.896 Y125.132 E4.05305
G1 X87.982 Y124.921 E4.08425
G1 X87.09 Y124.632 E4.11544
G1 X86.225 Y124.268 E4.14665
G1 X85.395 Y123.832 E4.17783
G1 X84.605 Y123.327 E4.20902
G1 X83.861 Y122.757 E4.24019
G1 X83.168 Y122.125 E4.27139
G1 X82.531 Y121.436 E4.3026
G1 X81.955 Y120.696 E4.33379
G1 X81.445 Y119.909 E4.36498
G1 X81.003 Y119.082 E4.39617
G1 X80.633 Y118.22 E4.42737
G1 X80.339 Y117.329 E4.45857
G1 X80.121 Y116.417 E4.48976
G1 X79.981 Y115.49 E4.52094
G1 X79.921 Y114.554 E4.55214
G1 X79.942 Y113.616 E4.58334
G1 X80.041 Y112.684 E4.61452
G1 X80.22 Y111.763 E4.64572
G1 X80.45 Y110.945 E4.67398
G1 X80.848 Y109.711 E4.71711
G1 X80.925 Y109.484 E4.72508
G1 X81.654 Y107.094 E4.80819
G1 X82.315 Y104.69 E4.89111
G1 X82.925 Y102.198 E4.97644
G1 X83.453 Y99.745 E5.0599
G1 X83.905 Y97.303 E5.1425
G1 X84.291 Y94.837 E5.22552
G1 X84.703 Y91.415 E5.34016
G1 X84.764 Y90.941 E5.35605
G1 X84.923 Y90.017 E5.38724
G1 X85.161 Y89.109 E5.41846
G1 X85.474 Y88.226 E5.44962
G1 X85.862 Y87.372 E5.48081
G1 X86.322 Y86.554 E5.51203
G1 X86.849 Y85.778 E5.54323
G1 X87.44 Y85.051 E5.57439
G0 F6000 X87.819 Y85.228
G1 F1200 X88.466 Y84.573 E5.60501
G1 X89.168 Y83.977 E5.63564
G1 X89.918 Y83.444 E5.66624
G1 X90.712 Y82.978 E5.69686
G1 X91.544 Y82.583 E5.7275
G1 X92.407 Y82.261 E5.75813
G1 X93.294 Y82.016 E5.78874
G1 X94.199 Y81.848 E5.81935
G1 X95.116 Y81.76 E5.84999
G1 X96.036 Y81.751 E5.88059
G1 X96.549 Y81.781 E5.89768
G1 X96.893 Y81.811 E5.90917
G1 X99.169 Y82.035 E5.98524
G1 X101.672 Y82.21 E6.06869
G1 X104.216 Y82.315 E6.15337
G1 X106.727 Y82.348 E6.2369
G1 X109.272 Y82.309 E6.32155
G1 X111.791 Y82.2 E6.40542
G1 X114.333 Y82.017 E6.49018
G1 X116.585 Y81.796 E6.56544
G1 X117.504 Y81.746 E6.59605
G1 X118.424 Y81.775 E6.62667
G1 X119.338 Y81.885 E6.65729
G1 X120.239 Y82.073 E6.6879
G1 X121.121 Y82.339 E6.71854
G1 X121.976 Y82.68 E6.74916
G1 X122.798 Y83.095 E6.77978
G1 X123.581 Y83.579 E6.8104
G1 X124.319 Y84.129 E6.84101
G1 X125.007 Y84.741 E6.87164
G1 X125.639 Y85.411 E6.90227
G1 X126.211 Y86.132 E6.93288
G1 X126.717 Y86.901 E6.9635
G1 X127.155 Y87.711 E6.99413
G1 X127.521 Y88.555 E7.02473
G1 X127.813 Y89.429 E7.05537
G1 X128.028 Y90.324 E7.08599
G1 X128.141 Y91.04 E7.1101
G1 X128.223 Y91.708 E7.13248
G1 X128.395 Y93.277 E7.18498
G1 X128.738 Y95.762 E7.26842
G1 X129.159 Y98.28 E7.35333
G1 X129.643 Y100.745 E7.43688
G1 X130.195 Y103.19 E7.52025
G1 X130.827 Y105.665 E7.60521
G1 X131.518 Y108.081 E7.68879
G1 X132.063 Y109.8 E7.74876
G1 X132.089 Y109.898 E7.75214
G1 X132.468 Y111.076 E7.7933
G1 X132.711 Y111.964 E7.82392
G1 X132.876 Y112.87 E7.85455
G1 X132.963 Y113.786 E7.88515
G1 X132.969 Y114.707 E7.91578
G1 X132.895 Y115.625 E7.94641
G1 X132.742 Y116.533 E7.97704
G1 X132.511 Y117.424 E8.00765
G1 X132.204 Y118.292 E8.03828
G1 X131.822 Y119.129 E8.06888
G1 X131.369 Y119.931 E8.09951
G1 X130.848 Y120.69 E8.13013
G1 X130.264 Y121.401 E8.16074
G1 X129.619 Y122.059 E8.19138
G1 X128.921 Y122.658 E8.22197
G1 X128.172 Y123.195 E8.25263
G1 X127.38 Y123.664 E8.28324
G1 X126.551 Y124.063 E8.31384
G1 X125.69 Y124.389 E8.34446
G1 X124.803 Y124.638 E8.3751
G1 X123.899 Y124.81 E8.40571
G1 X122.531 Y124.919 E8.45135
G1 X121.692 Y124.93 E8.47926
G1 X91.461 Y124.929 E9.48475
G1 X90.766 Y124.919 E9.50787
G1 X89.847 Y124.866 E9.53848
G1 X88.936 Y124.733 E9.56911
G1 X88.04 Y124.522 E9.59972
G1 X87.166 Y124.233 E9.63034
G1 X86.32 Y123.87 E9.66096
G1 X85.509 Y123.435 E9.69157
G1 X84.738 Y122.931 E9.7222
G1 X84.014 Y122.363 E9.75281
G1 X83.342 Y121.733 E9.78345
G1 X82.728 Y121.048 E9.81404
G1 X82.175 Y120.311 E9.84469
G1 X81.688 Y119.53 E9.8753
G1 X81.271 Y118.709 E9.90593
G1 X80.926 Y117.856 E9.93653
G1 X80.657 Y116.975 E9.96717
G1 X80.465 Y116.075 E9.99778
G1 X80.352 Y115.161 E10.02841
G1 X80.319 Y114.241 E10.05903
G1 X80.366 Y113.322 E10.08963
G1 X80.493 Y112.41 E10.12026
G1 X80.698 Y111.512 E10.1509
G1 X80.83 Y111.068 E10.1663
G1 X81.227 Y109.839 E10.20926
G1 X81.3 Y109.623 E10.21684
G1 X82.036 Y107.212 E10.30069
G1 X82.71 Y104.759 E10.3853
G1 X83.311 Y102.305 E10.46933
G1 X83.844 Y99.83 E10.55353
G1 X84.3 Y97.367 E10.63685
G1 X84.687 Y94.891 E10.7202
G1 X85.1 Y91.466 E10.83494
G1 X85.161 Y90.992 E10.85084
G1 X85.318 Y90.085 E10.88145
G1 X85.553 Y89.195 E10.91207
G1 X85.864 Y88.328 E10.9427
G1 X86.25 Y87.492 E10.97333
G1 X86.707 Y86.693 E11.00394
G1 X87.231 Y85.936 E11.03456
G1 X87.819 Y85.228 E11.06518
G0 F6000 X88.197 Y85.407
G1 F1200 X88.84 Y84.773 E11.09521
G1 X89.536 Y84.198 E11.12524
G1 X90.281 Y83.687 E11.15528
G1 X91.068 Y83.244 E11.18532
G1 X91.891 Y82.873 E11.21535
G1 X92.743 Y82.575 E11.24537
G1 X93.619 Y82.354 E11.27542
G1 X94.511 Y82.212 E11.30546
G1 X95.412 Y82.148 E11.3355
G1 X96.516 Y82.18 E11.37224
G1 X96.854 Y82.209 E11.38352
G1 X99.138 Y82.434 E11.45985
G1 X101.661 Y82.61 E11.54397
G1 X104.195 Y82.715 E11.62833
G1 X106.727 Y82.748 E11.71255
G1 X109.295 Y82.709 E11.79797
G1 X111.801 Y82.6 E11.8814
G1 X114.364 Y82.416 E11.96686
G1 X116.624 Y82.194 E12.04239
G1 X117.526 Y82.145 E12.07244
G1 X118.428 Y82.177 E12.10246
G1 X119.324 Y82.288 E12.13249
G1 X120.207 Y82.478 E12.16253
G1 X121.07 Y82.745 E12.19257
G1 X121.906 Y83.088 E12.22263
G1 X122.708 Y83.503 E12.25266
G1 X123.47 Y83.988 E12.2827
G1 X124.186 Y84.538 E12.31273
G1 X124.851 Y85.149 E12.34277
G1 X125.459 Y85.817 E12.37281
G1 X126.006 Y86.535 E12.40283
G1 X126.487 Y87.3 E12.43289
G1 X126.898 Y88.104 E12.46292
G1 X127.237 Y88.941 E12.49296
G1 X127.501 Y89.805 E12.52301
G1 X127.744 Y91.09 E12.5665
G1 X127.825 Y91.752 E12.58869
G1 X127.994 Y93.299 E12.64044
G1 X128.342 Y95.817 E12.72499
G1 X128.766 Y98.352 E12.81048
G1 X129.254 Y100.839 E12.89477
G1 X129.804 Y103.271 E12.9777
G1 X130.441 Y105.769 E13.06344
G1 X131.148 Y108.239 E13.1489
G1 X131.681 Y109.921 E13.20758
G1 X131.706 Y110.013 E13.21075
G1 X132.087 Y111.199 E13.25218
G1 X132.325 Y112.07 E13.28222
G1 X132.485 Y112.959 E13.31226
G1 X132.566 Y113.858 E13.34228
G1 X132.566 Y114.761 E13.37232
G1 X132.487 Y115.661 E13.40236
G1 X132.329 Y116.55 E13.4324
G1 X132.093 Y117.422 E13.46244
G1 X131.781 Y118.269 E13.49246
G1 X131.394 Y119.085 E13.5225
G1 X130.937 Y119.864 E13.55254
G1 X130.414 Y120.6 E13.58257
G1 X129.827 Y121.286 E13.6126
G1 X129.181 Y121.918 E13.64266
G1 X128.482 Y122.49 E13.6727
G1 X127.736 Y122.998 E13.70272
G1 X126.947 Y123.438 E13.73277
G1 X126.123 Y123.807 E13.7628
G1 X125.269 Y124.101 E13.79284
G1 X124.392 Y124.319 E13.82289
G1 X123.5 Y124.458 E13.85292
G1 X122.525 Y124.519 E13.88541
G1 X121.692 Y124.53 E13.91312
G1 X91.467 Y124.529 E14.91841
G1 X90.772 Y124.519 E14.94152
G1 X89.871 Y124.466 E14.97154
G1 X88.977 Y124.333 E15.00161
G1 X88.099 Y124.123 E15.03163
G1 X87.243 Y123.835 E15.06167
G1 X86.416 Y123.472 E15.09171
G1 X85.624 Y123.038 E15.12175
G1 X84.874 Y122.536 E15.15176
G1 X84.171 Y121.969 E15.1818
G1 X83.521 Y121.342 E15.21184
G1 X82.929 Y120.66 E15.24188
G1 X82.399 Y119.928 E15.27194
G1 X81.936 Y119.153 E15.30196
G1 X81.544 Y118.339 E15.33201
G1 X81.225 Y117.494 E15.36205
G1 X80.983 Y116.624 E15.39209
G1 X80.818 Y115.736 E15.42213
G1 X80.732 Y114.837 E15.45217
G1 X80.726 Y113.934 E15.4822
G1 X80.8 Y113.034 E15.51224
G1 X80.954 Y112.144 E15.54228
G1 X81.211 Y111.19 E15.57514
G1 X81.606 Y109.967 E15.61788
G1 X81.686 Y109.731 E15.62617
G1 X82.419 Y107.329 E15.7097
G1 X83.09 Y104.888 E15.7939
G1 X83.704 Y102.379 E15.87981
G1 X84.235 Y99.916 E15.96361
G1 X84.695 Y97.43 E16.0477
G1 X85.083 Y94.947 E16.13129
G1 X85.496 Y91.517 E16.2462
G1 X85.557 Y91.043 E16.26209
G1 X85.712 Y90.153 E16.29214
G1 X85.945 Y89.281 E16.32216
G1 X86.254 Y88.432 E16.35221
G1 X86.637 Y87.614 E16.38225
G1 X87.091 Y86.834 E16.41227
G1 X87.612 Y86.096 E16.44231
G1 X88.197 Y85.407 E16.47238
G1 F2400 E15.67238
;MESH:K??rper6.3mf
G0 F6000 X95 Y93.226
G0 X96.175 Y93.226
G0 X99.272 Y95.334
G0 X105.719 Y96.821
G0 X112.266 Y95.983
G0 X116.839 Y93.854
G0 X117.258 Y109.201
G0 X121.113 Y113.73
;TYPE:WALL-INNER
G1 F2400 E16.47238
G1 F1200 X120.69 Y113.73 E16.48645
G1 X120.689 Y113.73 E16.48648
G1 X92.609 Y113.73 E17.42042
G1 X92.608 Y113.73 E17.42046
G1 X92.185 Y113.73 E17.43453
G1 X92.455 Y113.404 E17.44224
G1 X95.448 Y109.797 E17.59813
G1 X95.687 Y109.469 E17.61163
G1 X95.891 Y109.111 E17.62533
G1 X96.055 Y108.728 E17.63919
G1 X96.171 Y108.327 E17.65308
G1 X96.242 Y107.92 E17.66682
G1 X96.265 Y107.53 E17.67981
G1 X96.265 Y93.868 E18.13421
G1 X96.265 Y93.867 E18.13424
G1 X96.265 Y93.5 E18.14645
G1 X96.573 Y93.701 E18.1533
G1 X96.858 Y93.888 E18.16464
G1 X97.669 Y94.361 E18.19586
G1 X98.5 Y94.794 E18.22703
G1 X99.339 Y95.177 E18.25771
G1 X100.229 Y95.531 E18.28956
G1 X101.118 Y95.832 E18.32078
G1 X102.02 Y96.089 E18.35197
G1 X102.936 Y96.299 E18.38323
G1 X103.86 Y96.463 E18.41444
G1 X104.792 Y96.58 E18.44569
G1 X105.728 Y96.65 E18.4769
G1 X106.666 Y96.673 E18.50811
G1 X107.604 Y96.649 E18.53932
G1 X108.541 Y96.577 E18.57058
G1 X109.473 Y96.457 E18.60183
G1 X110.396 Y96.292 E18.63302
G1 X111.311 Y96.079 E18.66426
G1 X112.214 Y95.821 E18.6955
G1 X113.102 Y95.518 E18.72671
G1 X113.975 Y95.17 E18.75796
G1 X114.828 Y94.778 E18.78919
G1 X115.66 Y94.344 E18.8204
G1 X116.47 Y93.869 E18.85163
G1 X116.722 Y93.703 E18.86167
G1 X117.031 Y93.5 E18.87396
G1 X117.031 Y93.869 E18.88083
G1 X117.031 Y93.87 E18.88086
G1 X117.031 Y107.537 E19.33543
G1 X117.055 Y107.937 E19.34876
G1 X117.128 Y108.344 E19.36251
G1 X117.246 Y108.741 E19.37629
G1 X117.411 Y109.124 E19.39016
G1 X117.618 Y109.483 E19.40394
G1 X117.85 Y109.798 E19.41695
G1 X120.843 Y113.404 E19.57282
G1 X121.113 Y113.73 E19.58053
G0 F6000 X121.964 Y114.13
;TYPE:WALL-OUTER
G1 F1200 X91.333 Y114.13 E20.59932
G1 X95.132 Y109.551 E20.79721
G1 X95.35 Y109.252 E20.80952
G1 X95.532 Y108.932 E20.82176
G1 X95.678 Y108.593 E20.83404
G1 X95.781 Y108.237 E20.84637
G1 X95.844 Y107.874 E20.85862
G1 X95.865 Y107.518 E20.87048
G1 X95.865 Y92.728 E21.3624
G1 X96.3 Y93.045 E21.3803
G1 X97.068 Y93.548 E21.41084
G1 X97.862 Y94.011 E21.44141
G1 X98.676 Y94.434 E21.47192
G1 X99.496 Y94.809 E21.50191
G1 X100.367 Y95.155 E21.53308
G1 X101.237 Y95.45 E21.56363
G1 X102.12 Y95.701 E21.59417
G1 X103.016 Y95.907 E21.62475
G1 X103.92 Y96.067 E21.65528
G1 X104.832 Y96.182 E21.68585
G1 X105.748 Y96.25 E21.7164
G1 X106.666 Y96.273 E21.74695
G1 X107.584 Y96.249 E21.77749
G1 X108.5 Y96.179 E21.80804
G1 X109.412 Y96.062 E21.83863
G1 X110.315 Y95.9 E21.86914
G1 X111.211 Y95.692 E21.89973
G1 X112.094 Y95.439 E21.93028
G1 X112.963 Y95.143 E21.96082
G1 X113.817 Y94.802 E21.9914
G1 X114.652 Y94.419 E22.02196
G1 X115.466 Y93.994 E22.0525
G1 X116.259 Y93.529 E22.08307
G1 X117.026 Y93.024 E22.11362
G1 X117.431 Y92.728 E22.1303
G1 X117.431 Y107.525 E22.62245
G1 X117.453 Y107.889 E22.63458
G1 X117.518 Y108.251 E22.64681
G1 X117.623 Y108.605 E22.65909
G1 X117.769 Y108.945 E22.6714
G1 X117.953 Y109.264 E22.68365
G1 X118.165 Y109.551 E22.69552
G1 X121.964 Y114.13 E22.89341
G0 F6000 X121.448 Y113.888
G0 X120.498 Y113.163
G0 X120.283 Y113.34
;TYPE:SKIN
G1 F1200 X93.015 Y113.34 E23.80034
G1 X95.756 Y110.037 E23.9431
G1 X96.015 Y109.681 E23.95775
G1 X96.24 Y109.285 E23.97289
G1 X96.423 Y108.859 E23.98832
G1 X96.551 Y108.415 E24.00368
G1 X96.63 Y107.965 E24.01888
G1 X96.655 Y107.542 E24.03297
G1 X96.655 Y94.221 E24.47603
G1 X97.48 Y94.702 E24.50779
G1 X98.329 Y95.145 E24.53965
G1 X99.185 Y95.536 E24.57095
G1 X100.094 Y95.897 E24.60348
G1 X101.001 Y96.204 E24.63532
G1 X101.923 Y96.467 E24.66721
G1 X102.858 Y96.681 E24.69912
G1 X103.802 Y96.849 E24.73101
G1 X104.753 Y96.968 E24.76288
G1 X105.709 Y97.04 E24.79477
G1 X106.666 Y97.063 E24.82661
G1 X107.624 Y97.039 E24.85848
G1 X108.58 Y96.965 E24.89037
G1 X109.532 Y96.843 E24.9223
G1 X110.474 Y96.674 E24.95413
G1 X111.409 Y96.457 E24.98605
G1 X112.331 Y96.193 E25.01795
G1 X113.237 Y95.884 E25.04979
G1 X114.129 Y95.529 E25.08172
G1 X115 Y95.129 E25.1136
G1 X115.849 Y94.685 E25.14547
G1 X116.641 Y94.221 E25.176
G1 X116.641 Y107.549 E25.61929
G1 X116.667 Y107.984 E25.63378
G1 X116.748 Y108.434 E25.64899
G1 X116.879 Y108.874 E25.66426
G1 X117.062 Y109.299 E25.67965
G1 X117.291 Y109.697 E25.69492
G1 X117.542 Y110.038 E25.709
G1 X120.283 Y113.34 E25.85174
G0 F6000 X120.498 Y113.163
G0 X117.752 Y109.395
G0 X117.398 Y108.686
G0 X117.215 Y107.917
G0 X116.839 Y93.854
G0 X115.954 Y94.3
G0 X116.175 Y94.679
G1 F1200 X116.48 Y94.984 E25.86608
G0 F6000 X116.48 Y95.549
G1 F1200 X115.814 Y94.883 E25.89741
G0 F6000 X115.442 Y95.078
G1 F1200 X116.48 Y96.115 E25.94621
G0 F6000 X116.48 Y96.681
G1 F1200 X115.071 Y95.272 E26.01248
G0 F6000 X114.684 Y95.45
G1 F1200 X116.48 Y97.246 E26.09696
G0 F6000 X116.48 Y97.812
G1 F1200 X114.296 Y95.628 E26.19969
G0 F6000 X113.895 Y95.793
G1 F1200 X116.48 Y98.378 E26.32128
G0 F6000 X116.48 Y98.944
G1 F1200 X113.491 Y95.955 E26.46188
G0 F6000 X113.078 Y96.107
G1 F1200 X116.48 Y99.509 E26.6219
G0 F6000 X116.48 Y100.075
G1 F1200 X112.656 Y96.251 E26.80176
G0 F6000 X112.229 Y96.389
G1 F1200 X116.48 Y100.641 E27.00174
G0 F6000 X116.48 Y101.206
G1 F1200 X111.788 Y96.515 E27.22242
G0 F6000 X111.344 Y96.636
G1 F1200 X116.48 Y101.772 E27.464
G0 F6000 X116.48 Y102.338
G1 F1200 X110.885 Y96.743 E27.72717
G0 F6000 X110.422 Y96.846
G1 F1200 X116.48 Y102.903 E28.0121
G0 F6000 X116.48 Y103.469
G1 F1200 X109.943 Y96.933 E28.31955
G0 F6000 X109.458 Y97.013
