;FLAVOR:Marlin
;TIME:443
;Filament used: 0.0748793m
;Layer height: 0.1
;MINX:70.503
;MINY:68.907
;MINZ:0.2
;MAXX:98.475
;MAXY:96.868
;MAXZ:10.5
;Generated with Creality Slicer 4.8.2-191
M140 S75
M105
M190 S75
M104 S225
M105
M109 S225
M82 ;absolute extrusion mode

G28 ;Home

G92 E0 ;Reset Extruder
G1 Z2.0 F3000 ;Move Z Axis up
G1 X10.1 Y20 Z0.28 F5000.0 ;Move to start position
G1 X10.1 Y200.0 Z0.28 F1500.0 E15 ;Draw the first line
G1 X10.4 Y200.0 Z0.28 F5000.0 ;Move to side a little
G1 X10.4 Y20 Z0.28 F1500.0 E30 ;Draw the second line
G92 E0 ;Reset Extruder
G1 Z2.0 F3000 ;Move Z Axis up

G92 E0
G92 E0
G1 F2400 E-0.8
;LAYER_COUNT:104
;LAYER:0
M107
G0 F6000 X74.64 Y72.967 Z0.2
;TYPE:SKIRT
G1 F2400 E0
G1 F1200 X74.971 Y72.649 E0.01527
G1 X75.675 Y72.028 E0.04649
G1 X76.233 Y71.605 E0.06978
G1 X76.576 Y71.362 E0.08376
G1 X77.364 Y70.853 E0.11496
G1 X77.962 Y70.526 E0.13763
G1 X78.4 Y70.304 E0.15396
G1 X79.254 Y69.916 E0.18516
G1 X79.988 Y69.65 E0.21113
G1 X80.359 Y69.53 E0.2241
G1 X81.263 Y69.28 E0.25529
G1 X81.9 Y69.152 E0.2769
G1 X82.394 Y69.068 E0.29357
G1 X83.324 Y68.95 E0.32475
G1 X84.084 Y68.913 E0.35006
G1 X84.512 Y68.907 E0.36429
G1 X85.449 Y68.934 E0.39547
G1 X86.097 Y68.999 E0.41713
G1 X86.501 Y69.052 E0.43068
G1 X87.425 Y69.214 E0.46188
G1 X88.123 Y69.391 E0.48583
G1 X88.618 Y69.534 E0.50297
G1 X89.507 Y69.833 E0.53417
G1 X90.206 Y70.129 E0.55942
G1 X90.567 Y70.297 E0.57266
G1 X91.4 Y70.729 E0.60387
G1 X91.956 Y71.07 E0.62556
G1 X92.342 Y71.323 E0.64091
G1 X93.104 Y71.87 E0.67211
G1 X93.639 Y72.318 E0.69532
G1 X93.966 Y72.61 E0.7099
G1 X94.638 Y73.264 E0.74109
G1 X95.098 Y73.783 E0.76416
G1 X95.379 Y74.121 E0.77877
G1 X95.947 Y74.867 E0.80996
G1 X96.344 Y75.48 E0.83425
G1 X96.589 Y75.887 E0.85005
G1 X97.038 Y76.71 E0.88123
G1 X97.346 Y77.394 E0.90618
G1 X97.506 Y77.785 E0.92023
G1 X97.823 Y78.667 E0.95141
G1 X98.001 Y79.301 E0.97331
G1 X98.107 Y79.728 E0.98794
G1 X98.294 Y80.647 E1.01914
G1 X98.384 Y81.363 E1.04314
G1 X98.428 Y81.838 E1.059
G1 X98.475 Y82.775 E1.09021
G1 X98.459 Y83.448 E1.1126
G1 X98.44 Y83.799 E1.12429
G1 X98.403 Y84.28 E1.14033
G1 X98.22 Y85.509 E1.18166
G1 X98.126 Y85.961 E1.19702
G1 X97.896 Y86.87 E1.2282
G1 X97.663 Y87.565 E1.25258
G1 X97.506 Y87.986 E1.26753
G1 X97.141 Y88.85 E1.29872
G1 X96.824 Y89.467 E1.3218
G1 X96.611 Y89.852 E1.33643
G1 X96.123 Y90.653 E1.36763
G1 X95.706 Y91.233 E1.39138
G1 X95.443 Y91.575 E1.40573
G1 X94.84 Y92.293 E1.43692
G1 X94.358 Y92.788 E1.4599
G1 X94.024 Y93.11 E1.47533
G1 X93.321 Y93.732 E1.50655
G1 X92.742 Y94.171 E1.53072
G1 X92.366 Y94.437 E1.54604
G1 X91.578 Y94.946 E1.57724
G1 X90.953 Y95.285 E1.60089
G1 X90.579 Y95.473 E1.61481
G1 X89.724 Y95.858 E1.646
G1 X89.053 Y96.102 E1.66974
G1 X88.612 Y96.246 E1.68517
G1 X87.709 Y96.499 E1.71636
G1 X87.043 Y96.633 E1.73896
G1 X86.614 Y96.706 E1.75343
G1 X85.684 Y96.824 E1.78461
G1 X84.964 Y96.86 E1.80859
G1 X84.513 Y96.868 E1.82359
G1 X83.576 Y96.845 E1.85477
G1 X82.869 Y96.774 E1.8784
G1 X82.425 Y96.715 E1.8933
G1 X81.501 Y96.552 E1.9245
G1 X80.859 Y96.39 E1.94653
G1 X80.445 Y96.272 E1.96084
G1 X79.555 Y95.976 E1.99204
G1 X78.87 Y95.689 E2.01674
G1 X78.441 Y95.492 E2.03244
G1 X77.606 Y95.065 E2.06364
G1 X76.989 Y94.688 E2.08768
G1 X76.63 Y94.452 E2.10197
G1 X75.868 Y93.904 E2.13319
G1 X75.342 Y93.462 E2.15604
G1 X75.013 Y93.168 E2.17072
G1 X74.341 Y92.514 E2.20191
G1 X73.855 Y91.963 E2.22634
G1 X73.55 Y91.593 E2.24229
G1 X72.985 Y90.844 E2.2735
G1 X72.601 Y90.248 E2.29708
G1 X72.383 Y89.884 E2.31119
G1 X71.936 Y89.059 E2.3424
G1 X71.654 Y88.433 E2.36523
G1 X71.485 Y88.024 E2.37995
G1 X71.164 Y87.142 E2.41117
G1 X70.968 Y86.446 E2.43522
G1 X70.858 Y85.998 E2.45056
G1 X70.674 Y85.078 E2.48177
G1 X70.588 Y84.39 E2.50483
G1 X70.55 Y83.98 E2.51852
G1 X70.503 Y83.043 E2.54973
G1 X70.52 Y82.349 E2.57282
G1 X70.547 Y81.868 E2.58884
G1 X70.64 Y80.934 E2.62006
G1 X70.766 Y80.219 E2.64421
G1 X70.855 Y79.796 E2.65858
G1 X71.087 Y78.887 E2.68979
G1 X71.309 Y78.227 E2.71295
G1 X71.47 Y77.794 E2.72831
G1 X71.834 Y76.93 E2.7595
G1 X72.173 Y76.271 E2.78414
G1 X72.381 Y75.898 E2.79835
G1 X72.872 Y75.099 E2.82954
G1 X73.259 Y74.561 E2.85158
G1 X73.532 Y74.205 E2.8665
G1 X74.134 Y73.486 E2.89769
G1 X74.64 Y72.967 E2.9218
G0 F6000 X74.917 Y73.255
G1 F1200 X75.248 Y72.937 E2.93707
G1 X75.939 Y72.329 E2.96768
G1 X76.464 Y71.932 E2.98957
G1 X76.807 Y71.689 E3.00355
G1 X77.581 Y71.19 E3.03418
G1 X78.143 Y70.883 E3.05548
G1 X78.581 Y70.661 E3.07182
G1 X79.419 Y70.281 E3.10242
G1 X80.111 Y70.03 E3.1269
G1 X80.482 Y69.91 E3.13987
G1 X81.369 Y69.665 E3.17048
G1 X81.967 Y69.546 E3.19076
G1 X82.461 Y69.462 E3.20742
G1 X83.375 Y69.347 E3.23806
G1 X84.089 Y69.313 E3.26184
G1 X84.517 Y69.307 E3.27607
G1 X85.438 Y69.334 E3.30672
G1 X86.045 Y69.396 E3.32701
G1 X86.449 Y69.449 E3.34057
G1 X87.356 Y69.608 E3.37119
G1 X88.012 Y69.775 E3.39371
G1 X88.507 Y69.918 E3.41084
G1 X89.379 Y70.212 E3.44145
G1 X90.037 Y70.492 E3.46524
G1 X90.398 Y70.66 E3.47848
G1 X91.215 Y71.084 E3.50909
G1 X91.737 Y71.405 E3.52948
G1 X92.123 Y71.658 E3.54483
G1 X92.87 Y72.195 E3.57543
G1 X93.372 Y72.616 E3.59722
G1 X93.699 Y72.908 E3.6118
G1 X94.359 Y73.551 E3.64244
G1 X94.79 Y74.039 E3.6641
G1 X95.071 Y74.377 E3.67872
G1 X95.628 Y75.109 E3.70931
G1 X96.002 Y75.686 E3.73218
G1 X96.247 Y76.093 E3.74798
G1 X96.687 Y76.902 E3.77861
G1 X96.975 Y77.546 E3.80208
G1 X97.135 Y77.937 E3.81613
G1 X97.447 Y78.803 E3.84674
G1 X97.613 Y79.397 E3.86726
G1 X97.719 Y79.824 E3.88189
G1 X97.902 Y80.726 E3.9125
G1 X97.986 Y81.4 E3.93509
G1 X98.03 Y81.875 E3.95096
G1 X98.075 Y82.795 E3.98159
G1 X98.06 Y83.426 E4.00259
G1 X98.041 Y83.777 E4.01428
G1 X98.005 Y84.243 E4.02982
G1 X97.828 Y85.427 E4.06964
G1 X97.734 Y85.879 E4.085
G1 X97.508 Y86.772 E4.11564
G1 X97.288 Y87.425 E4.13855
G1 X97.131 Y87.846 E4.1535
G1 X96.772 Y88.694 E4.18413
G1 X96.474 Y89.273 E4.20578
G1 X96.261 Y89.658 E4.22042
G1 X95.781 Y90.444 E4.25105
G1 X95.389 Y90.989 E4.27338
G1 X95.126 Y91.331 E4.28773
G1 X94.533 Y92.035 E4.31834
G1 X94.08 Y92.5 E4.33994
G1 X93.746 Y92.822 E4.35537
G1 X93.056 Y93.432 E4.386
G1 X92.511 Y93.844 E4.40872
G1 X92.135 Y94.11 E4.42404
G1 X91.361 Y94.609 E4.45467
G1 X90.774 Y94.928 E4.47689
G1 X90.4 Y95.116 E4.49081
G1 X89.56 Y95.493 E4.52144
G1 X88.929 Y95.721 E4.54375
G1 X88.488 Y95.865 E4.55918
G1 X87.601 Y96.113 E4.58981
G1 X86.976 Y96.239 E4.61102
G1 X86.547 Y96.312 E4.62549
G1 X85.634 Y96.427 E4.6561
G1 X84.957 Y96.46 E4.67864
G1 X84.506 Y96.468 E4.69365
G1 X83.586 Y96.445 E4.72426
G1 X82.922 Y96.378 E4.74645
G1 X82.478 Y96.319 E4.76135
G1 X81.571 Y96.158 E4.79199
G1 X80.968 Y96.005 E4.81268
G1 X80.554 Y95.887 E4.827
G1 X79.681 Y95.596 E4.8576
G1 X79.037 Y95.326 E4.88083
G1 X78.608 Y95.129 E4.89653
G1 X77.788 Y94.709 E4.92717
G1 X77.208 Y94.354 E4.94979
G1 X76.849 Y94.118 E4.96408
G1 X76.103 Y93.579 E4.99469
G1 X75.609 Y93.164 E5.01615
G1 X75.28 Y92.87 E5.03083
G1 X74.621 Y92.227 E5.06145
G1 X74.164 Y91.708 E5.08445
G1 X73.859 Y91.338 E5.1004
G1 X73.305 Y90.603 E5.13101
G1 X72.944 Y90.042 E5.1532
G1 X72.726 Y89.678 E5.16731
G1 X72.288 Y88.869 E5.19791
G1 X72.023 Y88.28 E5.21939
G1 X71.854 Y87.871 E5.23411
G1 X71.54 Y87.006 E5.26472
G1 X71.357 Y86.351 E5.28734
G1 X71.247 Y85.903 E5.30268
G1 X71.066 Y85 E5.33331
G1 X70.986 Y84.353 E5.35499
G1 X70.948 Y83.943 E5.36869
G1 X70.903 Y83.024 E5.39929
G1 X70.92 Y82.371 E5.42102
G1 X70.947 Y81.89 E5.43704
G1 X71.038 Y80.974 E5.46766
G1 X71.157 Y80.302 E5.49036
G1 X71.246 Y79.879 E5.50473
G1 X71.475 Y78.987 E5.53536
G1 X71.684 Y78.367 E5.55712
G1 X71.845 Y77.934 E5.57249
G1 X72.203 Y77.086 E5.6031
G1 X72.522 Y76.465 E5.62632
G1 X72.73 Y76.092 E5.64053
G1 X73.213 Y75.309 E5.67113
G1 X73.577 Y74.805 E5.69181
G1 X73.85 Y74.449 E5.70673
G1 X74.441 Y73.743 E5.73735
G1 X74.917 Y73.255 E5.76002
G0 F6000 X75.194 Y73.544
G1 F1200 X75.525 Y73.226 E5.77529
G1 X76.204 Y72.629 E5.80536
G1 X76.696 Y72.258 E5.82586
G1 X77.039 Y72.015 E5.83984
G1 X77.798 Y71.526 E5.86987
G1 X78.324 Y71.24 E5.88978
G1 X78.762 Y71.018 E5.90611
G1 X79.584 Y70.646 E5.93612
G1 X80.234 Y70.411 E5.95911
G1 X80.605 Y70.291 E5.97208
G1 X81.476 Y70.051 E6.00213
G1 X82.034 Y69.94 E6.02105
G1 X82.528 Y69.856 E6.03772
G1 X83.424 Y69.745 E6.06775
G1 X84.095 Y69.713 E6.09009
G1 X84.523 Y69.707 E6.10433
G1 X85.426 Y69.734 E6.13438
G1 X85.993 Y69.793 E6.15334
G1 X86.397 Y69.846 E6.16689
G1 X87.286 Y70.003 E6.19691
G1 X87.901 Y70.16 E6.21802
G1 X88.396 Y70.303 E6.23516
G1 X89.252 Y70.592 E6.26521
G1 X89.869 Y70.854 E6.28751
G1 X90.23 Y71.022 E6.30075
G1 X91.031 Y71.439 E6.33079
G1 X91.517 Y71.739 E6.34978
G1 X91.903 Y71.992 E6.36513
G1 X92.636 Y72.52 E6.39518
G1 X93.106 Y72.915 E6.4156
G1 X93.433 Y73.207 E6.43018
G1 X94.079 Y73.838 E6.46021
G1 X94.482 Y74.294 E6.48045
G1 X94.763 Y74.632 E6.49507
G1 X95.309 Y75.352 E6.52513
G1 X95.659 Y75.893 E6.54656
G1 X95.904 Y76.3 E6.56236
G1 X96.335 Y77.093 E6.59238
G1 X96.605 Y77.697 E6.61438
G1 X96.765 Y78.088 E6.62844
G1 X97.07 Y78.938 E6.65847
G1 X97.225 Y79.494 E6.67767
G1 X97.331 Y79.921 E6.6923
G1 X97.509 Y80.806 E6.72233
G1 X97.588 Y81.437 E6.74348
G1 X97.632 Y81.912 E6.75934
G1 X97.675 Y82.814 E6.78938
G1 X97.66 Y83.404 E6.80901
G1 X97.641 Y83.755 E6.8207
G1 X97.607 Y84.207 E6.83578
G1 X97.436 Y85.346 E6.87408
G1 X97.342 Y85.798 E6.88944
G1 X97.119 Y86.673 E6.91947
G1 X96.913 Y87.285 E6.94095
G1 X96.756 Y87.706 E6.95589
G1 X96.403 Y88.537 E6.98592
G1 X96.124 Y89.08 E7.00623
G1 X95.911 Y89.465 E7.02086
G1 X95.439 Y90.235 E7.0509
G1 X95.072 Y90.745 E7.0718
G1 X94.809 Y91.087 E7.08615
G1 X94.227 Y91.778 E7.1162
G1 X93.802 Y92.212 E7.1364
G1 X93.468 Y92.534 E7.15183
G1 X92.791 Y93.132 E7.18188
G1 X92.28 Y93.518 E7.20318
G1 X91.904 Y93.784 E7.21849
G1 X91.144 Y94.272 E7.24853
G1 X90.594 Y94.57 E7.26934
G1 X90.22 Y94.758 E7.28326
G1 X89.396 Y95.128 E7.3133
G1 X88.805 Y95.341 E7.3342
G1 X88.364 Y95.485 E7.34963
G1 X87.494 Y95.727 E7.37966
G1 X86.909 Y95.844 E7.39951
G1 X86.48 Y95.917 E7.41398
G1 X85.584 Y96.029 E7.44401
G1 X84.95 Y96.06 E7.46513
G1 X84.499 Y96.068 E7.48013
G1 X83.596 Y96.044 E7.51017
G1 X82.974 Y95.981 E7.53097
G1 X82.53 Y95.922 E7.54586
G1 X81.641 Y95.764 E7.5759
G1 X81.078 Y95.62 E7.59522
G1 X80.664 Y95.502 E7.60954
G1 X79.807 Y95.217 E7.63958
G1 X79.203 Y94.962 E7.66139
G1 X78.774 Y94.765 E7.67709
G1 X77.971 Y94.353 E7.70711
G1 X77.428 Y94.019 E7.72831
G1 X77.069 Y93.783 E7.7426
G1 X76.337 Y93.254 E7.77264
G1 X75.875 Y92.866 E7.7927
G1 X75.546 Y92.572 E7.80738
G1 X74.9 Y91.941 E7.83741
G1 X74.472 Y91.454 E7.85898
G1 X74.167 Y91.084 E7.87493
G1 X73.624 Y90.362 E7.90497
G1 X73.287 Y89.837 E7.92572
G1 X73.069 Y89.473 E7.93983
G1 X72.64 Y88.678 E7.96988
G1 X72.393 Y88.127 E7.98996
G1 X72.224 Y87.718 E8.00468
G1 X71.916 Y86.869 E8.03472
G1 X71.745 Y86.255 E8.05592
G1 X71.635 Y85.807 E8.07126
G1 X71.459 Y84.921 E8.10131
G1 X71.385 Y84.316 E8.12158
G1 X71.347 Y83.906 E8.13528
G1 X71.303 Y83.004 E8.16531
G1 X71.319 Y82.393 E8.18564
G1 X71.346 Y81.912 E8.20166
G1 X71.437 Y81.014 E8.23168
G1 X71.549 Y80.384 E8.25297
G1 X71.638 Y79.961 E8.26734
G1 X71.862 Y79.086 E8.29738
G1 X72.058 Y78.506 E8.31775
G1 X72.219 Y78.073 E8.33311
G1 X72.571 Y77.241 E8.36316
G1 X72.871 Y76.66 E8.38491
G1 X73.079 Y76.287 E8.39911
G1 X73.554 Y75.519 E8.42915
G1 X73.894 Y75.048 E8.44847
G1 X74.167 Y74.692 E8.46339
G1 X74.748 Y74 E8.49344
G1 X75.194 Y73.544 E8.51466
G1 F2400 E7.71466
;MESH:K??rper5.3mf
G0 F6000 X81.855 Y80.344
G0 X82.593 Y81.137
G0 X82.259 Y82.888
G0 X82.361 Y83.551
G0 X82.649 Y84.145
G0 X83.105 Y84.634
G0 X83.668 Y84.96
G0 X85.029 Y85.225
;TYPE:WALL-INNER
G1 F2400 E8.51466
G1 F1200 X84.663 Y85.28 E8.52697
G1 X84.314 Y85.28 E8.53857
G1 X83.948 Y85.225 E8.55088
G1 X83.609 Y85.12 E8.56269
G1 X83.293 Y84.968 E8.57435
G1 X82.994 Y84.764 E8.58639
G1 X82.727 Y84.517 E8.59849
G1 X82.507 Y84.24 E8.61025
G1 X82.327 Y83.929 E8.6222
G1 X82.197 Y83.599 E8.634
G1 X82.117 Y83.244 E8.6461
G1 X82.089 Y82.888 E8.65798
G1 X82.117 Y82.534 E8.66979
G1 X82.197 Y82.179 E8.6819
G1 X82.328 Y81.848 E8.69374
G1 X82.507 Y81.536 E8.7057
G1 X82.728 Y81.259 E8.71749
G1 X82.994 Y81.013 E8.72954
G1 X83.288 Y80.812 E8.74138
G1 X83.613 Y80.656 E8.75337
G1 X83.952 Y80.551 E8.76518
G1 X84.312 Y80.497 E8.77728
G1 X84.665 Y80.497 E8.78902
G1 X85.025 Y80.551 E8.80113
G1 X85.368 Y80.658 E8.81308
G1 X85.682 Y80.809 E8.82467
G1 X85.984 Y81.015 E8.83683
G1 X86.249 Y81.259 E8.84881
G1 X86.47 Y81.536 E8.8606
G1 X86.649 Y81.848 E8.87256
G1 X86.78 Y82.179 E8.8844
G1 X86.86 Y82.533 E8.89647
G1 X86.887 Y82.888 E8.90831
G1 X86.86 Y83.243 E8.92015
G1 X86.779 Y83.601 E8.93236
G1 X86.65 Y83.929 E8.94408
G1 X86.47 Y84.24 E8.95604
G1 X86.25 Y84.518 E8.96783
G1 X85.983 Y84.765 E8.97993
G1 X85.689 Y84.965 E8.99175
G1 X85.364 Y85.121 E9.00374
G1 X85.029 Y85.225 E9.01541
G0 F6000 X85.114 Y85.617
;TYPE:WALL-OUTER
G1 F1200 X84.696 Y85.68 E9.02947
G1 X84.281 Y85.68 E9.04327
G1 X83.863 Y85.617 E9.05733
G1 X83.465 Y85.494 E9.07119
G1 X83.089 Y85.313 E9.08507
G1 X82.745 Y85.078 E9.09892
G1 X82.435 Y84.792 E9.11295
G1 X82.175 Y84.464 E9.12687
G1 X81.966 Y84.103 E9.14075
G1 X81.814 Y83.716 E9.15457
G1 X81.72 Y83.301 E9.16873
G1 X81.688 Y82.888 E9.1825
G1 X81.72 Y82.475 E9.19628
G1 X81.814 Y82.061 E9.2104
G1 X81.967 Y81.674 E9.22424
G1 X82.175 Y81.311 E9.23816
G1 X82.434 Y80.986 E9.25198
G1 X82.745 Y80.699 E9.26606
G1 X83.089 Y80.463 E9.27993
G1 X83.465 Y80.283 E9.2938
G1 X83.864 Y80.159 E9.30769
G1 X84.28 Y80.097 E9.32168
G1 X84.697 Y80.097 E9.33555
G1 X85.113 Y80.159 E9.34954
G1 X85.511 Y80.283 E9.36341
G1 X85.887 Y80.464 E9.37729
G1 X86.232 Y80.699 E9.39117
G1 X86.543 Y80.986 E9.40524
G1 X86.802 Y81.311 E9.41907
G1 X87.01 Y81.674 E9.43298
G1 X87.163 Y82.061 E9.44682
G1 X87.257 Y82.474 E9.46091
G1 X87.288 Y82.888 E9.47472
G1 X87.257 Y83.302 E9.48853
G1 X87.163 Y83.716 E9.50265
G1 X87.011 Y84.103 E9.51648
G1 X86.802 Y84.464 E9.53035
G1 X86.542 Y84.792 E9.54427
G1 X86.23 Y85.081 E9.55842
G1 X85.891 Y85.311 E9.57204
G1 X85.511 Y85.494 E9.58607
G1 X85.114 Y85.617 E9.59989
G0 F6000 X85.016 Y85.189
G0 X84.945 Y84.843
;TYPE:SKIN
G1 F1200 X84.631 Y84.89 E9.61045
G1 X84.346 Y84.89 E9.61993
G1 X84.031 Y84.843 E9.63053
G1 X83.751 Y84.756 E9.64028
G1 X83.491 Y84.631 E9.64987
G1 X83.241 Y84.46 E9.65995
G1 X83.012 Y84.249 E9.6703
G1 X82.827 Y84.016 E9.6802
G1 X82.68 Y83.762 E9.68996
G1 X82.571 Y83.484 E9.69989
G1 X82.503 Y83.183 E9.71015
G1 X82.479 Y82.888 E9.72
G1 X82.503 Y82.595 E9.72978
G1 X82.569 Y82.3 E9.73983
G1 X82.683 Y82.013 E9.7501
G1 X82.829 Y81.757 E9.7599
G1 X83.011 Y81.529 E9.76961
G1 X83.239 Y81.319 E9.77992
G1 X83.489 Y81.147 E9.79001
G1 X83.755 Y81.02 E9.79981
G1 X84.035 Y80.933 E9.80957
G1 X84.344 Y80.887 E9.81996
G1 X84.633 Y80.887 E9.82957
G1 X84.941 Y80.933 E9.83993
G1 X85.225 Y81.021 E9.84982
G1 X85.484 Y81.146 E9.85938
G1 X85.741 Y81.322 E9.86974
G1 X85.964 Y81.526 E9.87979
G1 X86.147 Y81.756 E9.88957
G1 X86.294 Y82.013 E9.89942
G1 X86.408 Y82.3 E9.90969
G1 X86.474 Y82.594 E9.91971
G1 X86.497 Y82.888 E9.92952
G1 X86.474 Y83.182 E9.93933
G1 X86.406 Y83.485 E9.94965
G1 X86.297 Y83.762 E9.95956
G1 X86.15 Y84.016 E9.96932
G1 X85.965 Y84.25 E9.97924
G1 X85.733 Y84.464 E9.98974
G1 X85.495 Y84.626 E9.99931
G1 X85.222 Y84.757 E10.00938
G1 X84.945 Y84.843 E10.01903
G0 F6000 X85.026 Y85.11
G0 X83.987 Y85.058
G0 X83.376 Y84.819
G0 X82.851 Y84.4
G0 X82.641 Y84.09
G0 X82.252 Y83.341
G0 X82.681 Y83.246
G1 F1200 X84.128 Y84.694 E10.08711
G0 F6000 X84.714 Y84.714
G1 F1200 X82.657 Y82.657 E10.18387
G0 F6000 X82.776 Y82.21
G1 F1200 X85.169 Y84.603 E10.29643
G0 F6000 X85.535 Y84.403
G1 F1200 X82.967 Y81.836 E10.4172
G0 F6000 X83.236 Y81.539
G1 F1200 X85.841 Y84.144 E10.53973
G0 F6000 X86.08 Y83.817
G1 F1200 X83.556 Y81.293 E10.65845
G0 F6000 X83.954 Y81.125
G1 F1200 X86.255 Y83.426 E10.76668
G0 F6000 X86.332 Y82.938
G1 F1200 X84.441 Y81.047 E10.85563
G0 F6000 X85.114 Y81.154
G1 F1200 X86.218 Y82.258 E10.90756
G0 F6000 X86.544 Y82.129
G1 F2400 E10.10756
;MESH:NONMESH
G0 F300 X86.544 Y82.129 Z0.3
G0 F6000 X86.63 Y82.097
G0 X86.717 Y82.888
G0 X86.615 Y83.553
G0 X86.329 Y84.144
G0 X85.963 Y84.538
G0 X85.029 Y85.225
;TIME_ELAPSED:22.634724
;LAYER:1
M106 S85
;TYPE:WALL-INNER
;MESH:K??rper5.3mf
G1 F2400 E10.90756
